; generated by PrusaSlicer 2.6.0+linux-x64-GTK3 on 2023-07-04 at 07:47:14 UTC


;
;

;
;

;
;
;

; external perimeters extrusion width = 0.45mm
; perimeters extrusion width = 0.45mm
; infill extrusion width = 0.45mm
; solid infill extrusion width = 0.45mm
; top infill extrusion width = 0.40mm
; first layer extrusion width = 0.50mm

M73 P0 R24
M201 X2500 Y2500 Z200 E2500 ; sets maximum accelerations, mm/sec^2
M203 X200 Y200 Z40 E100 ; sets maximum feedrates, mm / sec
M204 P2000 R1200 T2000 ; sets acceleration (P, T) and retract acceleration (R), mm/sec^2
M205 X8.00 Y8.00 Z2.00 E10.00 ; sets the jerk limits, mm/sec
M205 S0 T0 ; sets the minimum extruding and travel feed rate, mm/sec
;TYPE:Custom
M17 ; enable steppers
M862.3 P "MK4" ; printer model check
M862.1 P0.4 ; nozzle diameter check
M555 X112.5 Y88.5 W32 H29

G90 ; use absolute coordinates
M83 ; extruder relative mode

M140 S60 ; set bed temp

M104 S170 ; set extruder temp for bed leveling
M109 R170 ; wait for temp


M84 E ; turn off E motor

G28 ; home all without mesh bed level

G1 X42 Y-4 Z5 F4800

M302 S160 ; lower cold extrusion limit to 160C


G1 E-2 F2400 ; retraction


M84 E ; turn off E motor

G29 P9 X10 Y-4 W32 H4

M106 S100

G0 Z40 F10000

M190 S60 ; wait for bed temp

M107

;
; MBL
;
M84 E ; turn off E motor
G29 P1 ; invalidate mbl & probe print area
G29 P1 X0 Y0 W50 H20 C ; probe near purge place
G29 P3.2 ; interpolate mbl probes
G29 P3.13 ; extrapolate mbl outside probe area
G29 A ; activate mbl

; prepare for purge
M104 S215
G0 X0 Y-4 Z15 F4800 ; move away and ready for the purge
M109 S215

G92 E0
M569 S0 E ; set spreadcycle mode for extruder

;
; Extrude purge line
;
G92 E0 ; reset extruder position
G1 E2 F2400 ; deretraction after the initial one before nozzle cleaning
G0 E7 X15 Z0.2 F500 ; purge
G0 X25 E4 F500 ; purge
G0 X35 E4 F650 ; purge
G0 X45 E4 F800 ; purge
G0 X48 Z0.05 F8000 ; wipe, move close to the bed
G0 X51 Z0.2 F8000 ; wipe, move quickly away from the bed

G92 E0
M221 S100 ; set flow to 100%
G21 ; set units to millimeters
G90 ; use absolute coordinates
M83 ; use relative distances for extrusion
M900 K0.05 ; Filament gcode



M142 S36 ; set heatbreak target temp
M107
;LAYER_CHANGE
;Z:0.2
;HEIGHT:0.2
;BEFORE_LAYER_CHANGE
G92 E0.0
;0.2


G1 E-.8 F2100
G1 Z.2 F720
;AFTER_LAYER_CHANGE
;0.2
; printing object Shape-Box id:0 copy 0
G1 Z.4
G1 X136.593 Y116.593 F12000
G1 Z.2 F720
G1 E.8 F1500
M204 P600
;TYPE:Perimeter
;WIDTH:0.499999
G1 F1200
G1 X113.407 Y116.593 E.88121
G1 X113.407 Y93.407 E.88121
G1 X136.593 Y93.407 E.88121
G1 X136.593 Y116.533 E.87893
M204 P1000
G1 X137.05 Y117.05 F12000
M204 P600
;TYPE:External perimeter
G1 F1200
G1 X112.95 Y117.05 E.91595
G1 X112.95 Y92.95 E.91595
G1 X137.05 Y92.95 E.91595
G1 X137.05 Y116.99 E.91367
M204 P1000
G1 X136.664 Y116.946 F12000
G1 E-.64 F2100
;WIPE_START
G1 F9600
G1 X136.28 Y116.992 E-.16
;WIPE_END
G1 Z.4 F720
G1 X135.455 Y93.613 F12000
M73 P1 R24
G1 Z.2 F720
G1 E.8 F1500
M204 P600
;TYPE:Solid infill
;WIDTH:0.503957
G1 F1200
G1 X136.182 Y94.339 E.03939
G1 X136.182 Y94.991 E.02499
G1 X135.009 Y93.818 E.06359
G1 X134.357 Y93.818 E.02499
G1 X136.182 Y95.643 E.09894
G1 X136.182 Y96.295 E.02499
G1 X133.705 Y93.818 E.13429
G1 X133.053 Y93.818 E.02499
G1 X136.182 Y96.947 E.16964
G1 X136.182 Y97.599 E.02499
G1 X132.401 Y93.818 E.20498
G1 X131.749 Y93.818 E.02499
G1 X136.182 Y98.251 E.24033
G1 X136.182 Y98.903 E.02499
G1 X131.097 Y93.818 E.27568
G1 X130.445 Y93.818 E.02499
G1 X136.182 Y99.555 E.31103
G1 X136.182 Y100.207 E.02499
G1 X129.793 Y93.818 E.34638
G1 X129.141 Y93.818 E.02499
G1 X136.182 Y100.859 E.38172
G1 X136.182 Y101.512 E.02503
G1 X128.489 Y93.818 E.4171
G1 X127.836 Y93.818 E.02503
G1 X136.182 Y102.164 E.45247
G1 X136.182 Y102.816 E.02499
G1 X127.184 Y93.818 E.48782
G1 X126.532 Y93.818 E.02499
G1 X136.182 Y103.468 E.52317
G1 X136.182 Y104.12 E.02499
G1 X125.88 Y93.818 E.55852
G1 X125.228 Y93.818 E.02499
G1 X136.182 Y104.772 E.59386
G1 X136.182 Y105.424 E.02499
G1 X124.576 Y93.818 E.62921
G1 X123.924 Y93.818 E.02499
G1 X136.182 Y106.076 E.66456
G1 X136.182 Y106.728 E.02499
M73 P1 R23
G1 X123.272 Y93.818 E.69991
G1 X122.62 Y93.818 E.02499
G1 X136.182 Y107.38 E.73526
G1 X136.182 Y108.032 E.02499
G1 X121.968 Y93.818 E.7706
G1 X121.316 Y93.818 E.02499
G1 X136.182 Y108.684 E.80595
G1 X136.182 Y109.336 E.02499
G1 X120.664 Y93.818 E.8413
G1 X120.012 Y93.818 E.02499
M73 P2 R23
G1 X136.182 Y109.988 E.87665
G1 X136.182 Y110.64 E.02499
G1 X119.36 Y93.818 E.912
G1 X118.708 Y93.818 E.02499
G1 X136.182 Y111.292 E.94734
G1 X136.182 Y111.944 E.02499
G1 X118.056 Y93.818 E.98269
G1 X117.404 Y93.818 E.02499
G1 X136.182 Y112.596 E1.01804
G1 X136.182 Y113.248 E.02499
G1 X116.752 Y93.818 E1.05339
G1 X116.1 Y93.818 E.02499
G1 X136.182 Y113.9 E1.08873
G1 X136.182 Y114.552 E.02499
G1 X115.448 Y93.818 E1.12408
G1 X114.796 Y93.818 E.02499
G1 X136.182 Y115.204 E1.15943
G1 X136.182 Y115.856 E.02499
G1 X114.144 Y93.818 E1.19478
G1 X113.818 Y93.818 E.0125
G1 X113.818 Y94.145 E.01254
G1 X135.855 Y116.182 E1.19472
G1 X135.203 Y116.182 E.02499
G1 X113.818 Y94.797 E1.15938
M73 P3 R23
G1 X113.818 Y95.449 E.02499
G1 X134.551 Y116.182 E1.12403
G1 X133.899 Y116.182 E.02499
G1 X113.818 Y96.101 E1.08868
G1 X113.818 Y96.753 E.02499
G1 X133.247 Y116.182 E1.05333
G1 X132.595 Y116.182 E.02499
G1 X113.818 Y97.405 E1.01798
G1 X113.818 Y98.057 E.02499
G1 X131.943 Y116.182 E.98264
G1 X131.291 Y116.182 E.02499
G1 X113.818 Y98.709 E.94729
G1 X113.818 Y99.361 E.02499
G1 X130.639 Y116.182 E.91194
G1 X129.987 Y116.182 E.02499
G1 X113.818 Y100.013 E.87659
G1 X113.818 Y100.665 E.02499
G1 X129.335 Y116.182 E.84125
G1 X128.683 Y116.182 E.02499
M73 P4 R23
G1 X113.818 Y101.317 E.8059
G1 X113.818 Y101.969 E.02499
G1 X128.031 Y116.182 E.77055
G1 X127.379 Y116.182 E.02499
G1 X113.818 Y102.621 E.7352
G1 X113.818 Y103.273 E.02499
G1 X126.727 Y116.182 E.69985
G1 X126.075 Y116.182 E.02499
G1 X113.818 Y103.925 E.66451
G1 X113.818 Y104.577 E.02499
G1 X125.423 Y116.182 E.62916
G1 X124.771 Y116.182 E.02499
G1 X113.818 Y105.229 E.59381
G1 X113.818 Y105.881 E.02499
G1 X124.119 Y116.182 E.55846
G1 X123.467 Y116.182 E.02499
G1 X113.818 Y106.533 E.52311
G1 X113.818 Y107.185 E.02499
G1 X122.815 Y116.182 E.48777
G1 X122.163 Y116.182 E.02499
G1 X113.818 Y107.837 E.45242
G1 X113.818 Y108.489 E.02499
G1 X121.511 Y116.182 E.41707
G1 X120.859 Y116.182 E.02499
G1 X113.818 Y109.141 E.38172
G1 X113.818 Y109.793 E.02499
G1 X120.207 Y116.182 E.34638
G1 X119.555 Y116.182 E.02499
G1 X113.818 Y110.445 E.31103
G1 X113.818 Y111.097 E.02499
G1 X118.903 Y116.182 E.27568
G1 X118.251 Y116.182 E.02499
M73 P5 R23
G1 X113.818 Y111.749 E.24033
G1 X113.818 Y112.401 E.02499
G1 X117.599 Y116.182 E.20498
G1 X116.947 Y116.182 E.02499
G1 X113.818 Y113.053 E.16964
G1 X113.818 Y113.705 E.02499
G1 X116.295 Y116.182 E.13429
G1 X115.643 Y116.182 E.02499
G1 X113.818 Y114.357 E.09894
G1 X113.818 Y115.009 E.02499
G1 X114.991 Y116.182 E.06359
G1 X114.339 Y116.182 E.02499
G1 X113.613 Y115.455 E.03939
M204 P1000
; stop printing object Shape-Box id:0 copy 0
M106 S127.5
;LAYER_CHANGE
;Z:0.4
;HEIGHT:0.2
;BEFORE_LAYER_CHANGE
G92 E0.0
;0.4


G1 E-.64 F2100
;WIPE_START
G1 F9600
G1 X114.157 Y116 E-.16
;WIPE_END
G1 Z.4 F720
;AFTER_LAYER_CHANGE
;0.4
M104 S210 ; set temperature
; printing object Shape-Box id:0 copy 0
G1 Z.6
G1 X136.868 Y116.868 F12000
G1 Z.4 F720
G1 E.8 F1500
M204 P900
;TYPE:Perimeter
;WIDTH:0.449999
G1 F2700
G1 X113.132 Y116.868 E.80343
G1 X113.132 Y93.132 E.80343
G1 X136.868 Y93.132 E.80343
G1 X136.868 Y116.808 E.8014
M204 P1000
G1 X137.275 Y117.275 F12000
M204 P700
;TYPE:External perimeter
G1 F1500
G1 X112.725 Y117.275 E.83099
G1 X112.725 Y92.725 E.83099
G1 X137.275 Y92.725 E.83099
G1 X137.275 Y117.215 E.82896
M204 P1000
G1 X136.889 Y117.171 F12000
G1 E-.64 F2100
;WIPE_START
G1 F9600
G1 X136.505 Y117.217 E-.16
;WIPE_END
G1 Z.6 F720
G1 X113.609 Y93.531 F12000
G1 Z.4 F720
G1 E.8 F1500
M204 P1500
;TYPE:Solid infill
;WIDTH:0.548766
G1 F5400
G1 X113.564 Y93.487 E.00265
G1 X113.503 Y93.503 E.00265
G1 X113.487 Y93.564 E.00265
G1 X113.531 Y93.609 E.00265
G1 X113.593 Y93.593 E.00269
M204 P1000
G1 X113.366 Y94.388 F12000
M204 P1500
;WIDTH:0.38292
G1 F5400
G1 X113.295 Y94.369 E.00208
G1 X113.314 Y94.44 E.00208
G1 X113.355 Y94.429 E.0012
;WIDTH:0.41646
G1 X113.427 Y94.336 E.00365
;WIDTH:0.449999
G1 X113.498 Y94.243 E.00396
G1 X114.243 Y93.498 E.03566
G1 X114.336 Y93.427 E.00396
;WIDTH:0.41646
G1 X114.429 Y93.355 E.00365
;WIDTH:0.38292
G1 X114.388 Y93.366 E.0012
G1 X114.369 Y93.295 E.00208
G1 X114.44 Y93.314 E.00208
;WIDTH:0.449999
G1 X114.818 Y93.498 E.01423
G1 X113.498 Y94.818 E.06319
G1 X113.498 Y95.394 E.0195
G1 X115.394 Y93.498 E.09076
G1 X115.97 Y93.498 E.0195
G1 X113.498 Y95.97 E.11833
G1 X113.498 Y96.546 E.0195
G1 X116.546 Y93.498 E.14591
G1 X117.121 Y93.498 E.01946
G1 X113.498 Y97.121 E.17343
G1 X113.498 Y97.697 E.0195
G1 X117.697 Y93.498 E.201
G1 X118.273 Y93.498 E.0195
G1 X113.498 Y98.273 E.22858
G1 X113.498 Y98.848 E.01946
G1 X118.848 Y93.498 E.2561
G1 X119.424 Y93.498 E.0195
G1 X113.498 Y99.424 E.28367
G1 X113.498 Y100 E.0195
G1 X120 Y93.498 E.31125
G1 X120.575 Y93.498 E.01946
G1 X113.498 Y100.575 E.33877
G1 X113.498 Y101.151 E.0195
M73 P5 R22
G1 X121.151 Y93.498 E.36634
G1 X121.727 Y93.498 E.0195
G1 X113.498 Y101.727 E.39392
G1 X113.498 Y102.303 E.0195
G1 X122.303 Y93.498 E.42149
G1 X122.878 Y93.498 E.01946
G1 X113.498 Y102.878 E.44901
G1 X113.498 Y103.454 E.0195
G1 X123.454 Y93.498 E.47659
G1 X124.03 Y93.498 E.0195
G1 X113.498 Y104.03 E.50416
G1 X113.498 Y104.605 E.01946
G1 X124.605 Y93.498 E.53169
G1 X125.181 Y93.498 E.0195
G1 X113.498 Y105.181 E.55926
G1 X113.498 Y105.757 E.0195
G1 X125.757 Y93.498 E.58683
G1 X126.332 Y93.498 E.01946
G1 X113.498 Y106.332 E.61436
G1 X113.498 Y106.908 E.0195
G1 X126.908 Y93.498 E.64193
G1 X127.484 Y93.498 E.0195
G1 X113.498 Y107.484 E.6695
G1 X113.498 Y108.059 E.01946
M73 P6 R22
G1 X128.059 Y93.498 E.69703
G1 X128.635 Y93.498 E.0195
G1 X113.498 Y108.635 E.7246
G1 X113.498 Y109.211 E.0195
G1 X129.211 Y93.498 E.75217
G1 X129.787 Y93.498 E.0195
G1 X113.498 Y109.787 E.77974
G1 X113.498 Y110.362 E.01946
G1 X130.362 Y93.498 E.80727
G1 X130.938 Y93.498 E.0195
G1 X113.498 Y110.938 E.83484
G1 X113.498 Y111.514 E.0195
G1 X131.514 Y93.498 E.86241
G1 X132.089 Y93.498 E.01946
G1 X113.498 Y112.089 E.88994
G1 X113.498 Y112.665 E.0195
G1 X132.665 Y93.498 E.91751
G1 X133.241 Y93.498 E.0195
G1 X113.498 Y113.241 E.94509
G1 X113.498 Y113.816 E.01946
G1 X133.816 Y93.498 E.97261
G1 X134.392 Y93.498 E.0195
G1 X113.498 Y114.392 E1.00018
G1 X113.498 Y114.968 E.0195
G1 X134.968 Y93.498 E1.02776
G1 X135.544 Y93.498 E.0195
G1 X113.498 Y115.544 E1.05533
G1 X113.498 Y116.119 E.01946
G1 X136.119 Y93.498 E1.08285
G1 X136.638 Y93.392 E.01793
;WIDTH:0.38292
G1 X136.567 Y93.373 E.00208
G1 X136.586 Y93.444 E.00208
G1 X136.627 Y93.433 E.0012
;WIDTH:0.41646
G1 X136.564 Y93.562 E.00446
;WIDTH:0.449999
G1 X136.502 Y93.692 E.00488
G1 X113.692 Y116.502 E1.0919
G1 X113.562 Y116.564 E.00488
;WIDTH:0.41646
G1 X113.433 Y116.627 E.00446
;WIDTH:0.38292
G1 X113.392 Y116.638 E.0012
G1 X113.373 Y116.567 E.00208
G1 X113.444 Y116.586 E.00208
M204 P1000
G1 X114.268 Y116.502 F12000
M204 P1500
;WIDTH:0.449999
G1 F5400
G1 X136.502 Y94.268 E1.06433
G1 X136.502 Y94.843 E.01946
G1 X114.843 Y116.502 E1.0368
G1 X115.419 Y116.502 E.0195
G1 X136.502 Y95.419 E1.00923
G1 X136.502 Y95.995 E.0195
G1 X115.995 Y116.502 E.98166
G1 X116.57 Y116.502 E.01946
G1 X136.502 Y96.57 E.95413
G1 X136.502 Y97.146 E.0195
G1 X117.146 Y116.502 E.92656
G1 X117.722 Y116.502 E.0195
G1 X136.502 Y97.722 E.89899
G1 X136.502 Y98.297 E.01946
G1 X118.297 Y116.502 E.87146
G1 X118.873 Y116.502 E.0195
G1 X136.502 Y98.873 E.84389
G1 X136.502 Y99.449 E.0195
G1 X119.449 Y116.502 E.81632
G1 X120.024 Y116.502 E.01946
G1 X136.502 Y100.024 E.78879
G1 X136.502 Y100.6 E.0195
G1 X120.6 Y116.502 E.76122
G1 X121.176 Y116.502 E.0195
G1 X136.502 Y101.176 E.73365
G1 X136.502 Y101.752 E.0195
G1 X121.752 Y116.502 E.70607
G1 X122.327 Y116.502 E.01946
G1 X136.502 Y102.327 E.67855
G1 X136.502 Y102.903 E.0195
G1 X122.903 Y116.502 E.65098
G1 X123.479 Y116.502 E.0195
G1 X136.502 Y103.479 E.6234
G1 X136.502 Y104.054 E.01946
G1 X124.054 Y116.502 E.59588
G1 X124.63 Y116.502 E.0195
G1 X136.502 Y104.63 E.56831
G1 X136.502 Y105.206 E.0195
G1 X125.206 Y116.502 E.54073
G1 X125.781 Y116.502 E.01946
G1 X136.502 Y105.781 E.51321
G1 X136.502 Y106.357 E.0195
G1 X126.357 Y116.502 E.48563
G1 X126.933 Y116.502 E.0195
G1 X136.502 Y106.933 E.45806
G1 X136.502 Y107.509 E.0195
G1 X127.509 Y116.502 E.43049
G1 X128.084 Y116.502 E.01946
G1 X136.502 Y108.084 E.40296
G1 X136.502 Y108.66 E.0195
G1 X128.66 Y116.502 E.37539
G1 X129.236 Y116.502 E.0195
G1 X136.502 Y109.236 E.34782
G1 X136.502 Y109.811 E.01946
G1 X129.811 Y116.502 E.32029
M73 P7 R22
G1 X130.387 Y116.502 E.0195
G1 X136.502 Y110.387 E.29272
G1 X136.502 Y110.963 E.0195
G1 X130.963 Y116.502 E.26515
G1 X131.538 Y116.502 E.01946
G1 X136.502 Y111.538 E.23762
G1 X136.502 Y112.114 E.0195
G1 X132.114 Y116.502 E.21005
G1 X132.69 Y116.502 E.0195
G1 X136.502 Y112.69 E.18248
G1 X136.502 Y113.266 E.0195
G1 X133.266 Y116.502 E.15491
G1 X133.841 Y116.502 E.01946
G1 X136.502 Y113.841 E.12738
G1 X136.502 Y114.417 E.0195
G1 X134.417 Y116.502 E.09981
G1 X134.993 Y116.502 E.0195
G1 X136.502 Y114.993 E.07223
G1 X136.502 Y115.568 E.01946
G1 X135.568 Y116.502 E.04471
G1 X136.029 Y116.664 E.01654
;WIDTH:0.38292
G1 X135.958 Y116.645 E.00208
G1 X135.977 Y116.716 E.00208
G1 X136.018 Y116.705 E.0012
;WIDTH:0.41646
G1 X136.081 Y116.603 E.00372
;WIDTH:0.449999
G1 X136.144 Y116.502 E.00403
G1 X136.502 Y116.144 E.01714
G1 X136.603 Y116.081 E.00403
;WIDTH:0.41646
G1 X136.705 Y116.018 E.00372
;WIDTH:0.38292
G1 X136.664 Y116.029 E.0012
G1 X136.645 Y115.958 E.00208
G1 X136.716 Y115.977 E.00208
M204 P1000
; stop printing object Shape-Box id:0 copy 0
M106 S255
;LAYER_CHANGE
;Z:0.6
;HEIGHT:0.2
;BEFORE_LAYER_CHANGE
G92 E0.0
;0.6


G1 E-.64 F2100
;WIPE_START
G1 F9600
G1 X136.645 Y115.958 E-.01527
G1 X136.664 Y116.029 E-.01527
G1 X136.705 Y116.018 E-.00882
G1 X136.603 Y116.081 E-.02491
G1 X136.502 Y116.144 E-.02474
G1 X136.26 Y116.386 E-.07099
;WIPE_END
G1 Z.6 F720
;AFTER_LAYER_CHANGE
;0.6
; printing object Shape-Box id:0 copy 0
G1 X136.868 Y116.868 F12000
G1 E.8 F1500
M204 P900
;TYPE:Perimeter
;WIDTH:0.449999
G1 F2414.093

G1 X113.132 Y116.868 E.80343
G1 F2351.942
G1 X113.132 Y93.132 E.80343
G1 X136.868 Y93.132 E.80343
G1 F2317.42
G1 X136.868 Y116.808 E.8014

M204 P1000
G1 X137.275 Y117.275 F12000
M204 P700
;TYPE:External perimeter
G1 F1500
G1 X112.725 Y117.275 E.83099
G1 X112.725 Y92.725 E.83099
G1 X137.275 Y92.725 E.83099
G1 X137.275 Y117.215 E.82896
M204 P1000
G1 X136.889 Y117.171 F12000
G1 E-.64 F2100
;WIPE_START
G1 F9600
G1 X136.505 Y117.217 E-.16
;WIPE_END
G1 Z.8 F720
G1 X113.531 Y116.391 F12000
G1 Z.6 F720
G1 E.8 F1500
M204 P1500
;TYPE:Solid infill
;WIDTH:0.548766
G1 F5400
G1 X113.487 Y116.436 E.00265
G1 X113.503 Y116.497 E.00265
G1 X113.564 Y116.513 E.00265
G1 X113.609 Y116.469 E.00265
G1 X113.593 Y116.407 E.00269
M204 P1000
G1 X114.388 Y116.634 F12000
M204 P1500
;WIDTH:0.38292
G1 F5400
G1 X114.369 Y116.705 E.00208
G1 X114.44 Y116.686 E.00208
G1 X114.429 Y116.645 E.0012
;WIDTH:0.41646
G1 X114.336 Y116.573 E.00365
;WIDTH:0.449999
G1 X114.243 Y116.502 E.00396
G1 X113.498 Y115.757 E.03566
G1 X113.427 Y115.664 E.00396
;WIDTH:0.41646
G1 X113.355 Y115.571 E.00365
;WIDTH:0.38292
G1 X113.366 Y115.612 E.0012
G1 X113.295 Y115.631 E.00208
G1 X113.314 Y115.56 E.00208
;WIDTH:0.449999
G1 X113.498 Y115.182 E.01423
G1 X114.818 Y116.502 E.06319
G1 X115.394 Y116.502 E.0195
G1 X113.498 Y114.606 E.09076
G1 X113.498 Y114.03 E.0195
G1 X115.97 Y116.502 E.11833
G1 X116.546 Y116.502 E.0195
G1 X113.498 Y113.454 E.14591
G1 X113.498 Y112.879 E.01946
G1 X117.121 Y116.502 E.17343
G1 X117.697 Y116.502 E.0195
G1 X113.498 Y112.303 E.201
G1 X113.498 Y111.727 E.0195
G1 X118.273 Y116.502 E.22858
G1 X118.848 Y116.502 E.01946
G1 X113.498 Y111.152 E.2561
G1 X113.498 Y110.576 E.0195
G1 X119.424 Y116.502 E.28367
G1 X120 Y116.502 E.0195
G1 X113.498 Y110 E.31125
G1 X113.498 Y109.425 E.01946
