; generated by PrusaSlicer 2.4.0-beta3 on 2021-12-10 at 10:12:33 UTC


;
;

;
;
;

; external perimeters extrusion width = 0.45mm
; perimeters extrusion width = 0.45mm
; infill extrusion width = 0.45mm
; solid infill extrusion width = 0.45mm
; top infill extrusion width = 0.40mm
; first layer extrusion width = 0.42mm

M73 P0 R24
M201 X2500 Y2500 Z400 E5000 ; sets maximum accelerations, mm/sec^2
M203 X180 Y180 Z12 E80 ; sets maximum feedrates, mm/sec
M204 P1250 R1250 T2500 ; sets acceleration (P, T) and retract acceleration (R), mm/sec^2
M205 X8.00 Y8.00 Z2.00 E10.00 ; sets the jerk limits, mm/sec
M205 S0 T0 ; sets the minimum extruding and travel feed rate, mm/sec
M107
;TYPE:Custom
G90 ; use absolute coordinates
M83 ; extruder relative mode
M104 S170 ; set extruder temp for bed leveling
M140 S60 ; set bed temp
M109 R170 ; wait for bed leveling temp
M190 S60 ; wait for bed temp
M204 T1250 ; set travel acceleration
G28 ; home all without mesh bed level
G29 ; mesh bed leveling
M204 T2500 ; restore travel acceleration
M104 S215 ; set extruder temp
G92 E0
G1 Y-2 X179 F2400
G1 Z3 F720
M109 S215 ; wait for extruder temp

; intro line
G1 X170 F1000
G1 Z0.2 F720
G1 X110 E8 F900
G1 X40 E10 F700
G92 E0

M221 S95 ; set flow
G21 ; set units to millimeters
G90 ; use absolute coordinates
M83 ; use relative distances for extrusion
M900 K0.2 ; Filament gcode LA 1.5
; ; Filament gcode LA 1.0
M107
;LAYER_CHANGE
;Z:0.2
;HEIGHT:0.2
;BEFORE_LAYER_CHANGE
G92 E0.0
;0.2


G1 E-3.2 F4200
M73 P1 R24
G1 Z.2 F720
;AFTER_LAYER_CHANGE
;0.2
G1 Z.4
G1 X78.639 Y79.583 F9000
G1 Z.2 F720
G1 E3.2 F2400
M204 P800
;TYPE:Skirt/Brim
;WIDTH:0.42
G1 F1200
G1 X79.705 Y78.569 E.04612
G1 X81 Y78.246 E.04186
G1 X99 Y78.246 E.56438
G1 X100.417 Y78.639 E.04612
G1 X101.431 Y79.705 E.04612
G1 X101.754 Y81 E.04186
G1 X101.754 Y99 E.56438
G1 X101.361 Y100.417 E.04612
G1 X100.295 Y101.431 E.04612
G1 X99 Y101.754 E.04186
G1 X81 Y101.754 E.56438
G1 X79.583 Y101.361 E.04612
G1 X78.569 Y100.295 E.04612
G1 X78.246 Y99 E.04186
G1 X78.246 Y81 E.56438
G1 X78.623 Y79.64 E.04424
M204 P1000
G1 X78.997 Y79.752 F9000
M204 P800
G1 F1200
G1 X79.015 Y79.693 E.00195
G1 X80.06 Y78.817 E.04278
G1 X81 Y78.623 E.03008
G1 X99 Y78.623 E.56438
G1 X100.307 Y79.015 E.04278
G1 X101.183 Y80.06 E.04278
G1 X101.377 Y81 E.03008
G1 X101.377 Y99 E.56438
G1 X100.985 Y100.307 E.04278
G1 X99.94 Y101.183 E.04278
G1 X99 Y101.377 E.03008
G1 X81 Y101.377 E.56438
G1 X79.693 Y100.985 E.04278
G1 X78.817 Y99.94 E.04278
G1 X78.623 Y99 E.03008
G1 X78.623 Y81 E.56438
G1 X78.979 Y79.81 E.03895
M204 P1000
; printing object Shape-Box id:0 copy 0
G1 E-2.24 F4200
;WIPE_START
G1 F7200
G1 X79.015 Y79.693 E-.06768
G1 X80.06 Y78.817 E-.75612
G1 X80.216 Y78.784 E-.0882
;WIPE_END
G1 E-.048 F4200
G1 Z.4 F720
G1 X82.187 Y81.787 F9000
G1 Z.2 F720
G1 E3.2 F2400
M204 P800
;TYPE:Perimeter
G1 F1200
G1 X98.213 Y81.787 E.50248
G1 X98.213 Y98.213 E.51502
G1 X81.787 Y98.213 E.51502
G1 X81.787 Y81.787 E.51502
G1 X82.127 Y81.787 E.01066
M204 P1000
G1 X81.41 Y81.41 F9000
M204 P800
;TYPE:External perimeter
G1 F1200
G1 X98.59 Y81.41 E.53867
G1 X98.59 Y98.59 E.53867
M73 P2 R24
G1 X81.41 Y98.59 E.53867
G1 X81.41 Y81.47 E.53679
M204 P1000
G1 X81.796 Y81.514 F9000
G1 E-2.24 F4200
;WIPE_START
G1 F7200
G1 X83.056 Y81.464 E-.912
;WIPE_END
G1 E-.048 F4200
G1 Z.4 F720
G1 X98.1 Y82.674 F9000
G1 Z.2 F720
G1 E3.2 F2400
M204 P800
;TYPE:Solid infill
;WIDTH:0.425637
G1 F1200
G1 X97.495 Y82.07 E.02721
G1 X96.954 Y82.07 E.01722
G1 X97.93 Y83.046 E.04393
G1 X97.93 Y83.587 E.01722
G1 X96.413 Y82.07 E.06829
G1 X95.872 Y82.07 E.01722
G1 X97.93 Y84.128 E.09265
G1 X97.93 Y84.67 E.01722
G1 X95.33 Y82.07 E.117
G1 X94.789 Y82.07 E.01722
G1 X97.93 Y85.211 E.14136
G1 X97.93 Y85.752 E.01722
G1 X94.248 Y82.07 E.16572
G1 X93.707 Y82.07 E.01722
G1 X97.93 Y86.293 E.19008
G1 X97.93 Y86.835 E.01722
G1 X93.165 Y82.07 E.21444
G1 X92.624 Y82.07 E.01722
G1 X97.93 Y87.376 E.2388
G1 X97.93 Y87.917 E.01722
G1 X92.083 Y82.07 E.26316
G1 X91.542 Y82.07 E.01722
G1 X97.93 Y88.458 E.28751
G1 X97.93 Y89 E.01722
G1 X91 Y82.07 E.31187
G1 X90.459 Y82.07 E.01722
G1 X97.93 Y89.541 E.33623
G1 X97.93 Y90.082 E.01722
G1 X89.918 Y82.07 E.36059
G1 X89.377 Y82.07 E.01722
G1 X97.93 Y90.623 E.38495
G1 X97.93 Y91.165 E.01722
G1 X88.835 Y82.07 E.40931
G1 X88.294 Y82.07 E.01722
G1 X97.93 Y91.706 E.43366
G1 X97.93 Y92.247 E.01722
G1 X87.753 Y82.07 E.45802
G1 X87.212 Y82.07 E.01722
G1 X97.93 Y92.788 E.48238
G1 X97.93 Y93.33 E.01722
G1 X86.67 Y82.07 E.50674
G1 X86.129 Y82.07 E.01722
G1 X97.93 Y93.871 E.5311
G1 X97.93 Y94.412 E.01722
G1 X85.588 Y82.07 E.55546
G1 X85.047 Y82.07 E.01722
G1 X97.93 Y94.953 E.57981
G1 X97.93 Y95.495 E.01722
M73 P3 R24
G1 X84.505 Y82.07 E.60417
G1 X83.964 Y82.07 E.01722
G1 X97.93 Y96.036 E.62853
G1 X97.93 Y96.577 E.01722
G1 X83.423 Y82.07 E.65289
G1 X82.882 Y82.07 E.01722
G1 X97.93 Y97.118 E.67725
G1 X97.93 Y97.66 E.01722
M73 P3 R23
G1 X82.34 Y82.07 E.70161
G1 X82.07 Y82.07 E.00861
G1 X82.07 Y82.341 E.00861
G1 X97.659 Y97.93 E.7016
G1 X97.118 Y97.93 E.01722
G1 X82.07 Y82.882 E.67724
G1 X82.07 Y83.423 E.01722
G1 X96.577 Y97.93 E.65289
G1 X96.036 Y97.93 E.01722
G1 X82.07 Y83.964 E.62853
G1 X82.07 Y84.506 E.01722
G1 X95.494 Y97.93 E.60417
G1 X94.953 Y97.93 E.01722
G1 X82.07 Y85.047 E.57981
G1 X82.07 Y85.588 E.01722
G1 X94.412 Y97.93 E.55545
G1 X93.871 Y97.93 E.01722
G1 X82.07 Y86.129 E.53109
G1 X82.07 Y86.67 E.01722
G1 X93.33 Y97.93 E.50673
G1 X92.788 Y97.93 E.01722
G1 X82.07 Y87.212 E.48238
G1 X82.07 Y87.753 E.01722
M73 P4 R23
G1 X92.247 Y97.93 E.45802
G1 X91.706 Y97.93 E.01722
G1 X82.07 Y88.294 E.43366
G1 X82.07 Y88.835 E.01722
G1 X91.165 Y97.93 E.4093
G1 X90.623 Y97.93 E.01722
G1 X82.07 Y89.377 E.38494
G1 X82.07 Y89.918 E.01722
G1 X90.082 Y97.93 E.36058
G1 X89.541 Y97.93 E.01722
G1 X82.07 Y90.459 E.33623
G1 X82.07 Y91 E.01722
G1 X89 Y97.93 E.31187
G1 X88.458 Y97.93 E.01722
G1 X82.07 Y91.542 E.28751
G1 X82.07 Y92.083 E.01722
G1 X87.917 Y97.93 E.26315
G1 X87.376 Y97.93 E.01722
G1 X82.07 Y92.624 E.23879
G1 X82.07 Y93.165 E.01722
G1 X86.835 Y97.93 E.21443
G1 X86.293 Y97.93 E.01722
G1 X82.07 Y93.707 E.19008
G1 X82.07 Y94.248 E.01722
G1 X85.752 Y97.93 E.16572
G1 X85.211 Y97.93 E.01722
G1 X82.07 Y94.789 E.14136
G1 X82.07 Y95.33 E.01722
G1 X84.67 Y97.93 E.117
G1 X84.128 Y97.93 E.01722
G1 X82.07 Y95.872 E.09264
G1 X82.07 Y96.413 E.01722
G1 X83.587 Y97.93 E.06828
G1 X83.046 Y97.93 E.01722
G1 X82.07 Y96.954 E.04392
G1 X82.07 Y97.495 E.01722
G1 X82.674 Y98.1 E.0272
M204 P1000
; stop printing object Shape-Box id:0 copy 0
M106 S84.15
;LAYER_CHANGE
;Z:0.4
;HEIGHT:0.2
;BEFORE_LAYER_CHANGE
G92 E0.0
;0.4


G1 E-2.24 F4200
;WIPE_START
G1 F7200
G1 X82.07 Y97.495 E-.47371
G1 X82.07 Y96.954 E-.29994
G1 X82.246 Y97.131 E-.13835
;WIPE_END
G1 E-.048 F4200
G1 Z.4 F720
;AFTER_LAYER_CHANGE
;0.4
G1 Z.6
G1 X78.246 Y97.131 F9000
G1 Z.4 F720
G1 E3.2 F2400
;TYPE:Skirt/Brim
;WIDTH:0.42
G1 X78.246 Y81 E.50577
G1 X78.639 Y79.583 E.04612
G1 X79.705 Y78.569 E.04612
G1 X81 Y78.246 E.04186
G1 X99 Y78.246 E.56438
G1 X100.417 Y78.639 E.04612
G1 X101.431 Y79.705 E.04612
G1 X101.754 Y81 E.04186
G1 X101.754 Y99 E.56438
G1 X101.361 Y100.417 E.04612
G1 X100.295 Y101.431 E.04612
G1 X99 Y101.754 E.04186
G1 X81 Y101.754 E.56438
G1 X79.583 Y101.361 E.04612
G1 X78.569 Y100.295 E.04612
G1 X78.246 Y99 E.04186
G1 X78.246 Y97.191 E.05673
G1 X78.623 Y97.191 F9000
G1 F2400
G1 X78.623 Y81 E.50765
G1 X79.015 Y79.693 E.04278
G1 X80.06 Y78.817 E.04278
G1 X81 Y78.623 E.03008
G1 X99 Y78.623 E.56438
G1 X100.307 Y79.015 E.04278
G1 X101.183 Y80.06 E.04278
G1 X101.377 Y81 E.03008
G1 X101.377 Y99 E.56438
G1 X100.985 Y100.307 E.04278
G1 X99.94 Y101.183 E.04278
G1 X99 Y101.377 E.03008
G1 X81 Y101.377 E.56438
G1 X79.693 Y100.985 E.04278
G1 X78.817 Y99.94 E.04278
G1 X78.623 Y99 E.03008
G1 X78.623 Y97.251 E.05485
; printing object Shape-Box id:0 copy 0
G1 E-2.24 F4200
;WIPE_START
G1 F7200
G1 X78.623 Y95.605 E-.912
;WIPE_END
G1 E-.048 F4200
G1 Z.6 F720
G1 X81.632 Y97.968 F9000
G1 Z.4 F720
G1 E3.2 F2400
M204 P800
;TYPE:Perimeter
;WIDTH:0.45
G1 X81.632 Y81.632 E.55295
G1 X98.368 Y81.632 E.56649
G1 X98.368 Y98.368 E.56649
M73 P5 R23
G1 X81.632 Y98.368 E.56649
G1 X81.632 Y98.028 E.01151
M204 P1000
G1 X81.225 Y98.775 F9000
M204 P800
;TYPE:External perimeter
G1 F1800
G1 X81.225 Y81.225 E.59405
G1 X98.775 Y81.225 E.59405
G1 X98.775 Y98.775 E.59405
G1 X81.285 Y98.775 E.59202
M204 P1000
G1 X81.329 Y98.389 F9000
G1 E-2.24 F4200
;WIPE_START
G1 F7200
G1 X81.279 Y97.129 E-.912
;WIPE_END
G1 E-.048 F4200
G1 Z.6 F720
G1 X97.416 Y98.246 F9000
G1 Z.4 F720
G1 E3.2 F2400
;TYPE:Solid infill
;WIDTH:0.453099
G1 F4800
G1 X98.063 Y97.6 E.03117
G1 X98.063 Y97.019 E.01978
G1 X97.019 Y98.063 E.05032
G1 X96.439 Y98.063 E.01978
G1 X98.063 Y96.439 E.0783
G1 X98.063 Y95.859 E.01978
G1 X95.859 Y98.063 E.10628
G1 X95.279 Y98.063 E.01978
G1 X98.063 Y95.279 E.13426
G1 X98.063 Y94.699 E.01978
G1 X94.699 Y98.063 E.16224
G1 X94.119 Y98.063 E.01978
G1 X98.063 Y94.119 E.19022
G1 X98.063 Y93.539 E.01978
G1 X93.539 Y98.063 E.21819
G1 X92.959 Y98.063 E.01978
G1 X98.063 Y92.959 E.24617
G1 X98.063 Y92.379 E.01978
G1 X92.379 Y98.063 E.27415
G1 X91.799 Y98.063 E.01978
G1 X98.063 Y91.799 E.30213
G1 X98.063 Y91.219 E.01978
G1 X91.219 Y98.063 E.33011
G1 X90.639 Y98.063 E.01978
G1 X98.063 Y90.639 E.35809
G1 X98.063 Y90.058 E.01978
G1 X90.058 Y98.063 E.38607
G1 X89.478 Y98.063 E.01978
G1 X98.063 Y89.478 E.41405
G1 X98.063 Y88.898 E.01978
G1 X88.898 Y98.063 E.44203
G1 X88.318 Y98.063 E.01978
G1 X98.063 Y88.318 E.47001
G1 X98.063 Y87.738 E.01978
G1 X87.738 Y98.063 E.49799
G1 X87.158 Y98.063 E.01978
G1 X98.063 Y87.158 E.52597
G1 X98.063 Y86.578 E.01978
G1 X86.578 Y98.063 E.55395
G1 X85.998 Y98.063 E.01978
G1 X98.063 Y85.998 E.58193
G1 X98.063 Y85.418 E.01978
G1 X85.418 Y98.063 E.60991
G1 X84.838 Y98.063 E.01978
G1 X98.063 Y84.838 E.63789
G1 X98.063 Y84.258 E.01978
G1 X84.258 Y98.063 E.66587
G1 X83.678 Y98.063 E.01978
G1 X98.063 Y83.678 E.69385
G1 X98.063 Y83.097 E.01978
G1 X83.097 Y98.063 E.72183
G1 X82.517 Y98.063 E.01978
G1 X98.063 Y82.517 E.74981
G1 X98.063 Y81.937 E.01978
G1 X81.937 Y98.063 E.77778
G1 X81.937 Y97.482 E.01978
G1 X97.482 Y81.937 E.7498
G1 X96.902 Y81.937 E.01978
G1 X81.937 Y96.902 E.72182
G1 X81.937 Y96.322 E.01978
G1 X96.322 Y81.937 E.69384
G1 X95.742 Y81.937 E.01978
G1 X81.937 Y95.742 E.66586
G1 X81.937 Y95.162 E.01978
G1 X95.162 Y81.937 E.63788
G1 X94.582 Y81.937 E.01978
G1 X81.937 Y94.582 E.6099
G1 X81.937 Y94.002 E.01978
G1 X94.002 Y81.937 E.58192
G1 X93.422 Y81.937 E.01978
G1 X81.937 Y93.422 E.55394
G1 X81.937 Y92.842 E.01978
G1 X92.842 Y81.937 E.52596
G1 X92.262 Y81.937 E.01978
G1 X81.937 Y92.262 E.49798
G1 X81.937 Y91.682 E.01978
G1 X91.682 Y81.937 E.47
G1 X91.102 Y81.937 E.01978
G1 X81.937 Y91.102 E.44202
G1 X81.937 Y90.522 E.01978
G1 X90.522 Y81.937 E.41405
G1 X89.941 Y81.937 E.01978
G1 X81.937 Y89.941 E.38607
G1 X81.937 Y89.361 E.01978
G1 X89.361 Y81.937 E.35809
M73 P6 R23
G1 X88.781 Y81.937 E.01978
G1 X81.937 Y88.781 E.33011
G1 X81.937 Y88.201 E.01978
G1 X88.201 Y81.937 E.30213
G1 X87.621 Y81.937 E.01978
G1 X81.937 Y87.621 E.27415
G1 X81.937 Y87.041 E.01978
G1 X87.041 Y81.937 E.24617
G1 X86.461 Y81.937 E.01978
G1 X81.937 Y86.461 E.21819
G1 X81.937 Y85.881 E.01978
G1 X85.881 Y81.937 E.19021
G1 X85.301 Y81.937 E.01978
G1 X81.937 Y85.301 E.16223
G1 X81.937 Y84.721 E.01978
G1 X84.721 Y81.937 E.13425
G1 X84.141 Y81.937 E.01978
G1 X81.937 Y84.141 E.10627
G1 X81.937 Y83.561 E.01978
G1 X83.561 Y81.937 E.07829
G1 X82.98 Y81.937 E.01978
G1 X81.937 Y82.98 E.05031
G1 X81.937 Y82.4 E.01978
G1 X82.584 Y81.754 E.03117
; stop printing object Shape-Box id:0 copy 0
M106 S170.85
;LAYER_CHANGE
;Z:0.6
;HEIGHT:0.2
;BEFORE_LAYER_CHANGE
G92 E0.0
;0.6


G1 E-2.24 F4200
;WIPE_START
G1 F7200
G1 X81.937 Y82.4 E-.50641
G1 X81.937 Y82.98 E-.32146
G1 X82.045 Y82.873 E-.08413
;WIPE_END
G1 E-.048 F4200
G1 Z.6 F720
;AFTER_LAYER_CHANGE
;0.6
G1 Z.8
G1 X78.246 Y82.873 F9000
G1 Z.6 F720
G1 E3.2 F2400
;TYPE:Skirt/Brim
;WIDTH:0.42
G1 X78.246 Y81 E.05873
G1 X78.639 Y79.583 E.04612
G1 X79.705 Y78.569 E.04612
G1 X81 Y78.246 E.04186
G1 X99 Y78.246 E.56438
G1 X100.417 Y78.639 E.04612
G1 X101.431 Y79.705 E.04612
G1 X101.754 Y81 E.04186
G1 X101.754 Y99 E.56438
G1 X101.361 Y100.417 E.04612
G1 X100.295 Y101.431 E.04612
G1 X99 Y101.754 E.04186
G1 X81 Y101.754 E.56438
G1 X79.583 Y101.361 E.04612
G1 X78.569 Y100.295 E.04612
G1 X78.246 Y99 E.04186
G1 X78.246 Y82.933 E.50377
G1 X78.623 Y82.933 F9000
G1 F2400
G1 X78.623 Y81 E.06061
G1 X79.015 Y79.693 E.04278
G1 X80.06 Y78.817 E.04278
G1 X81 Y78.623 E.03008
G1 X99 Y78.623 E.56438
G1 X100.307 Y79.015 E.04278
G1 X101.183 Y80.06 E.04278
G1 X101.377 Y81 E.03008
G1 X101.377 Y99 E.56438
G1 X100.985 Y100.307 E.04278
G1 X99.94 Y101.183 E.04278
G1 X99 Y101.377 E.03008
G1 X81 Y101.377 E.56438
G1 X79.693 Y100.985 E.04278
G1 X78.817 Y99.94 E.04278
G1 X78.623 Y99 E.03008
G1 X78.623 Y82.993 E.50188
; printing object Shape-Box id:0 copy 0
G1 E-2.24 F4200
;WIPE_START
G1 F7200
G1 X78.623 Y81.347 E-.912
;WIPE_END
G1 E-.048 F4200
G1 Z.8 F720
G1 X82.032 Y81.632 F9000
G1 Z.6 F720
G1 E3.2 F2400
M204 P800
;TYPE:Perimeter
;WIDTH:0.45
G1 X98.368 Y81.632 E.55295
G1 X98.368 Y98.368 E.56649
G1 X81.632 Y98.368 E.56649
G1 X81.632 Y81.632 E.56649
G1 X81.972 Y81.632 E.01151
M204 P1000
G1 X81.225 Y81.225 F9000
M204 P800
;TYPE:External perimeter
G1 F1800
G1 X98.775 Y81.225 E.59405
G1 X98.775 Y98.775 E.59405
G1 X81.225 Y98.775 E.59405
G1 X81.225 Y81.285 E.59202
M204 P1000
G1 X81.611 Y81.329 F9000
G1 E-2.24 F4200
;WIPE_START
G1 F7200
G1 X82.871 Y81.279 E-.912
;WIPE_END
G1 E-.048 F4200
G1 Z.8 F720
G1 X98.246 Y82.584 F9000
G1 Z.6 F720
G1 E3.2 F2400
;TYPE:Solid infill
;WIDTH:0.453099
G1 F4800
G1 X97.6 Y81.937 E.03117
G1 X97.019 Y81.937 E.01978
G1 X98.063 Y82.981 E.05032
G1 X98.063 Y83.561 E.01978
G1 X96.439 Y81.937 E.0783
G1 X95.859 Y81.937 E.01978
G1 X98.063 Y84.141 E.10628
G1 X98.063 Y84.721 E.01978
G1 X95.279 Y81.937 E.13426
G1 X94.699 Y81.937 E.01978
G1 X98.063 Y85.301 E.16224
G1 X98.063 Y85.881 E.01978
G1 X94.119 Y81.937 E.19022
G1 X93.539 Y81.937 E.01978
G1 X98.063 Y86.461 E.21819
G1 X98.063 Y87.041 E.01978
G1 X92.959 Y81.937 E.24617
G1 X92.379 Y81.937 E.01978
G1 X98.063 Y87.621 E.27415
G1 X98.063 Y88.201 E.01978
G1 X91.799 Y81.937 E.30213
G1 X91.219 Y81.937 E.01978
G1 X98.063 Y88.781 E.33011
G1 X98.063 Y89.361 E.01978
G1 X90.639 Y81.937 E.35809
G1 X90.058 Y81.937 E.01978
G1 X98.063 Y89.942 E.38607
G1 X98.063 Y90.522 E.01978
G1 X89.478 Y81.937 E.41405
G1 X88.898 Y81.937 E.01978
G1 X98.063 Y91.102 E.44203
G1 X98.063 Y91.682 E.01978
M73 P7 R23
G1 X88.318 Y81.937 E.47001
G1 X87.738 Y81.937 E.01978
G1 X98.063 Y92.262 E.49799
G1 X98.063 Y92.842 E.01978
G1 X87.158 Y81.937 E.52597
G1 X86.578 Y81.937 E.01978
G1 X98.063 Y93.422 E.55395
G1 X98.063 Y94.002 E.01978
G1 X85.998 Y81.937 E.58193
G1 X85.418 Y81.937 E.01978
G1 X98.063 Y94.582 E.60991
G1 X98.063 Y95.162 E.01978
G1 X84.838 Y81.937 E.63789
G1 X84.258 Y81.937 E.01978
G1 X98.063 Y95.742 E.66587
G1 X98.063 Y96.322 E.01978
G1 X83.678 Y81.937 E.69385
G1 X83.097 Y81.937 E.01978
G1 X98.063 Y96.903 E.72183
G1 X98.063 Y97.483 E.01978
G1 X82.517 Y81.937 E.74981
G1 X81.937 Y81.937 E.01978
G1 X98.063 Y98.063 E.77778
G1 X97.482 Y98.063 E.01978
G1 X81.937 Y82.518 E.7498
G1 X81.937 Y83.098 E.01978
M73 P7 R22
G1 X96.902 Y98.063 E.72182
G1 X96.322 Y98.063 E.01978
G1 X81.937 Y83.678 E.69384
G1 X81.937 Y84.258 E.01978
G1 X95.742 Y98.063 E.66586
G1 X95.162 Y98.063 E.01978
G1 X81.937 Y84.838 E.63788
G1 X81.937 Y85.418 E.01978
G1 X94.582 Y98.063 E.6099
G1 X94.002 Y98.063 E.01978
G1 X81.937 Y85.998 E.58192
G1 X81.937 Y86.578 E.01978
G1 X93.422 Y98.063 E.55394
G1 X92.842 Y98.063 E.01978
G1 X81.937 Y87.158 E.52596
G1 X81.937 Y87.738 E.01978
G1 X92.262 Y98.063 E.49798
G1 X91.682 Y98.063 E.01978
G1 X81.937 Y88.318 E.47
G1 X81.937 Y88.898 E.01978
G1 X91.102 Y98.063 E.44202
G1 X90.522 Y98.063 E.01978
G1 X81.937 Y89.478 E.41405
G1 X81.937 Y90.059 E.01978
G1 X89.941 Y98.063 E.38607
G1 X89.361 Y98.063 E.01978
G1 X81.937 Y90.639 E.35809
G1 X81.937 Y91.219 E.01978
G1 X88.781 Y98.063 E.33011
G1 X88.201 Y98.063 E.01978
G1 X81.937 Y91.799 E.30213
G1 X81.937 Y92.379 E.01978
