; generated by PrusaSlicer 2.6.0+win64 on 2023-08-22 at 14:04:17 UTC


;
;

;
;

;
;
; 

; external perimeters extrusion width = 0.65mm
; perimeters extrusion width = 0.65mm
; infill extrusion width = 0.65mm
; solid infill extrusion width = 0.65mm
; top infill extrusion width = 0.55mm
; first layer extrusion width = 0.65mm

M73 P0 R44
M201 X5000 Y5000 Z200 E2500 ; sets maximum accelerations, mm/sec^2
M203 X400 Y400 Z12 E100 ; sets maximum feedrates, mm / sec
M204 P3000 R1200 T3000 ; sets acceleration (P, T) and retract acceleration (R), mm/sec^2
M205 X8.00 Y8.00 Z2.00 E10.00 ; sets the jerk limits, mm/sec
M205 S0 T0 ; sets the minimum extruding and travel feed rate, mm/sec
;TYPE:Custom
M17 ; enable steppers
M862.3 P "XL" ; printer model check
G90 ; use absolute coordinates
M83 ; extruder relative mode
; set print area
M555 X17.2467 Y11.6207 W34.8666 H22.0726
; inform about nozzle diameter
M862.1 T0 P0.6





; turn off unused heaters

 M104 T1 S0 
 M104 T2 S0 
 M104 T3 S0 
 M104 T4 S0 

M217 Z2 ; set toolchange z hop to 2mm, or zhop variable from slicer if higher
; set bed and extruder temp for MBL
M140 S60 ; set bed temp
M109 T0 S170
; Home XY
G28 XY
; try picking tools used in print





; select tool that will be used to home & MBL
T0 S1 L0
; home Z with MBL tool
M84 E ; turn off E motor
G28 Z
G0 Z10 ; add Z clearance
M190 S60 ; wait for bed temp
G29 G ; absorb heat
; move to the nozzle cleanup area
G1 X49.2467 Y4.62067 Z5 F24000
M302 S160 ; lower cold extrusion limit to 160C
G1 E-2 F2400 ; retraction for nozzle cleanup
; nozzle cleanup
M84 E ; turn off E motor
G29 P9 X17.2467 Y4.62067 W32 H7
G0 Z10 F480 ; move away in Z
M107 ; turn off the fan
; MBL
M84 E ; turn off E motor
G29 P1 ; invalidate mbl & probe print area
G29 P1 X30 Y0 W50 H20 C ; probe near purge place
G29 P3.2 ; interpolate mbl probes
G29 P3.13 ; extrapolate mbl outside probe area
G29 A ; activate mbl
G1 Z10 F720 ; move away in Z
P0 S1 L1 D0; park the tool
; set extruder temp
M104 T0 S215









;
; purge initial tool
;
P0 S1 L1 D0; park the tool
M109 T0 S215
T0 S1 L0 D0; pick the tool
G92 E0 ; reset extruder position
G1 Z10 F720 ; move to the Z ready for purge
G0 X30 Y-7 F24000 ; move close to the sheet's edge
G0 E10 X40 Z0.2 F500 ; purge while moving towards the sheet
G0 X70 E9 F800 ; continue purging and wipe the nozzle
G0 X73 Z0.05 F8000 ; wipe, move close to the bed
G0 X76 Z0.2 F8000 ; wipe, move quickly away from the bed
G1 E-1.05 F2400 ; retract

G92 E0 ; reset extruder position
G21 ; set units to millimeters
G90 ; use absolute coordinates
M83 ; use relative distances for extrusion
M900 K0.03 ; Filament gcode



M142 S36 ; set heatbreak target temp
M107
;LAYER_CHANGE
;Z:0.2
;HEIGHT:0.2
;BEFORE_LAYER_CHANGE
G92 E0.0
;0.2


G1 Z.2 F600
;AFTER_LAYER_CHANGE
;0.2
; printing object bunny.stl id:0 copy 0
G1 Z.4
G1 X21.245 Y20.391 F24000
G1 Z.2 F600
G1 E1.05 F1200
M204 P600
;TYPE:Perimeter
;WIDTH:0.649999
G1 F1500
G1 X21.237 Y20.16 E.01167
G1 X21.116 Y19.859 E.01638
G1 X18.972 Y16.454 E.20312
G1 X25.098 Y14.685 E.32187
G1 X25.635 Y14.684 E.02711
G1 X26.031 Y14.516 E.02171
G1 X26.343 Y14.254 E.02057
G1 X38.943 Y12.765 E.64046
G1 X39.757 Y12.917 E.0418
G1 X48.382 Y15.574 E.45557
G1 X50.847 Y18.602 E.19709
G1 X49.528 Y22.438 E.20476
G1 X43.322 Y24.541 E.33077
G1 X43.103 Y24.65 E.01235
G1 X42.815 Y24.914 E.01972
G1 X42.614 Y25.213 E.01819
G1 X42.546 Y25.554 E.01755
G1 X42.514 Y30.349 E.24205
G1 X29.867 Y32.517 E.64772
G1 X24.91 Y27.705 E.34873
G1 X24.743 Y27.323 E.02105
G1 X24.531 Y27.108 E.01524
G1 X24.035 Y26.91 E.02696
G1 X20.93 Y20.926 E.34031
G1 X21.155 Y20.762 E.01405
G1 X21.244 Y20.481 E.01488
M204 P1250
G1 X20.646 Y20.386 F24000
M204 P600
;TYPE:External perimeter
G1 F1500
G1 X20.602 Y20.183 E.01049
G1 X18.028 Y16.094 E.2439
G1 X25.145 Y14.039 E.37393
G1 X25.447 Y14.099 E.01554
G1 X25.76 Y13.972 E.01705
G1 X26.017 Y13.681 E.0196
G1 X38.963 Y12.151 E.65805
G1 X39.914 Y12.331 E.04886
G1 X48.737 Y15.048 E.46601
G1 X51.53 Y18.481 E.2234
G1 X50.005 Y22.918 E.23683
G1 X43.517 Y25.116 E.34579
G1 X43.478 Y25.132 E.00213
G1 X43.221 Y25.369 E.01765
G1 X43.153 Y25.558 E.01014
G1 X43.118 Y30.861 E.2677
G1 X29.672 Y33.166 E.68864
G1 X24.382 Y28.039 E.37187
G1 X24.284 Y27.747 E.01555
G1 X24.174 Y27.599 E.00931
G1 X23.617 Y27.424 E.02947
G1 X20.136 Y20.712 E.38167
G1 X20.396 Y20.644 E.01357
G1 X20.619 Y20.472 E.01422
M204 P1250
G1 X20.843 Y20.319 F24000
G1 E-.56 F2100
;WIPE_START
G1 F19200
G1 X20.602 Y20.183 E-.03008
G1 X20.038 Y19.288 E-.10992
;WIPE_END
G1 Z.4 F600
G1 X46.405 Y15.219 F24000
G1 Z.2 F600
G1 E.7 F1200
M204 P600
;TYPE:Solid infill
;WIDTH:0.662457
G1 F1500
G1 X50.17 Y18.984 E.27429
G1 X49.946 Y19.636 E.03551
G1 X45.552 Y15.242 E.32012
G1 X44.285 Y14.852 E.06829
G1 X49.722 Y20.288 E.39606
G1 X49.497 Y20.94 E.03553
G1 X43.019 Y14.462 E.47194
G1 X41.753 Y14.072 E.06824
G1 X49.273 Y21.592 E.54785
G1 X49.122 Y22.031 E.02392
G1 X48.909 Y22.104 E.0116
G1 X40.487 Y13.682 E.61357
G1 X39.628 Y13.417 E.04631
G1 X39.281 Y13.352 E.01819
G1 X48.254 Y22.325 E.65371
G1 X47.6 Y22.547 E.03558
G1 X38.401 Y13.349 E.67014
G1 X37.618 Y13.441 E.04061
G1 X46.945 Y22.769 E.67953
G1 X46.291 Y22.99 E.03556
G1 X36.834 Y13.534 E.68893
G1 X36.051 Y13.626 E.04061
G1 X45.636 Y23.212 E.69833
G1 X44.982 Y23.434 E.03558
G1 X35.267 Y13.719 E.70776
G1 X34.484 Y13.812 E.04062
G1 X44.328 Y23.656 E.71716
G1 X43.673 Y23.877 E.03561
G1 X33.7 Y13.904 E.72656
G1 X32.917 Y13.997 E.04062
G1 X43.032 Y24.112 E.73691
G1 X42.816 Y24.22 E.01244
G1 X42.523 Y24.48 E.02018
G1 X32.133 Y14.089 E.75698
G1 X31.349 Y14.182 E.04067
G1 X42.155 Y24.987 E.78721
G1 X42.094 Y25.135 E.00825
G1 X42.04 Y25.387 E.01328
G1 X42.029 Y25.737 E.01804
G1 X30.566 Y14.275 E.83508
G1 X29.782 Y14.367 E.04066
G1 X42.023 Y26.608 E.89179
G1 X42.017 Y27.478 E.04482
G1 X28.999 Y14.46 E.9484
G1 X28.215 Y14.553 E.04067
G1 X42.011 Y28.349 E1.00508
G1 X42.006 Y29.219 E.04482
G1 X27.432 Y14.645 E1.06176
G1 X26.648 Y14.738 E.04067
G1 X41.85 Y29.939 E1.10747
G1 X41.102 Y30.067 E.03909
G1 X26.09 Y15.056 E1.09363
G1 X25.886 Y15.15 E.01157
G1 X25.499 Y15.223 E.02029
G1 X25.369 Y15.211 E.00673
G1 X40.354 Y30.196 E1.0917
G1 X39.606 Y30.324 E.03909
M73 P1 R44
G1 X24.637 Y15.355 E1.09053
G1 X23.957 Y15.551 E.03646
G1 X38.858 Y30.452 E1.08558
G1 X38.11 Y30.58 E.03909
G1 X23.277 Y15.748 E1.08059
G1 X22.597 Y15.944 E.03646
G1 X37.362 Y30.708 E1.07564
G1 X36.614 Y30.837 E.0391
G1 X21.918 Y16.14 E1.07068
G1 X21.238 Y16.337 E.03647
G1 X35.866 Y30.965 E1.06569
G1 X35.118 Y31.093 E.03909
G1 X20.558 Y16.533 E1.06074
G1 X19.878 Y16.729 E.03646
G1 X34.37 Y31.221 E1.05578
G1 X33.622 Y31.35 E.0391
G1 X21.035 Y18.762 E.91703
G1 X21.558 Y19.593 E.05058
G1 X21.679 Y19.834 E.01389
G1 X21.765 Y20.192 E.01897
G1 X21.763 Y20.366 E.00896
G1 X32.874 Y31.478 E.8095
G1 X32.126 Y31.606 E.03909
G1 X21.582 Y21.062 E.76816
G1 X22.527 Y22.882 E.10564
G1 X31.378 Y31.734 E.64486
G1 X30.63 Y31.862 E.03909
G1 X22.831 Y24.063 E.56818
M204 P1250
; stop printing object bunny.stl id:0 copy 0
M106 S127.5
;LAYER_CHANGE
;Z:0.45
;HEIGHT:0.25
;BEFORE_LAYER_CHANGE
G92 E0.0
;0.45


G1 E-.56 F2100
;WIPE_START
G1 F19200
G1 X23.784 Y25.016 E-.14
;WIPE_END
G1 Z.4 F600
G1 Z.45
;AFTER_LAYER_CHANGE
;0.45
; printing object bunny.stl id:0 copy 0
G1 Z.65
G1 X21.123 Y20.933 F24000
M73 P1 R43
G1 Z.45 F600
G1 E.7 F1200
M204 P1000
;TYPE:Perimeter
;WIDTH:0.649999
G1 F3900

G1 X21.256 Y20.778 E.01266
G1 X21.384 Y20.444 E.02217
G1 X21.38 Y20.125 E.01977
G1 X21.259 Y19.82 E.02034
G1 X18.89 Y16.056 E.27567
G1 X18.776 Y15.901 E.01193
G1 X24.219 Y14.329 E.35116
G1 X25.083 Y14.535 E.05505
G1 X25.315 Y14.559 E.01446
G1 X25.589 Y14.508 E.01728
G1 X26.058 Y14.278 E.03238
G1 X26.313 Y14.046 E.02137
G1 F1200
G1 X27.065 Y13.029 E.0784
G1 F1173.217
G1 X27.077 Y13.013 E.00124
G1 X28.059 Y12.897 E.06129
G1 X34.839 Y12.095 E.42318
G1 X35.822 Y11.979 E.06135
G1 X35.87 Y11.988 E.00303
G1 F1200
G1 X39.334 Y12.628 E.21834
G1 F3900
G1 X39.734 Y12.652 E.02484
G1 X40.029 Y12.789 E.02016
G1 X48.694 Y15.459 E.562
G1 X51.228 Y18.574 E.24889
G1 X49.818 Y22.65 E.26733
G1 X49.693 Y22.768 E.01065
G1 X43.742 Y24.784 E.38945
G1 X43.641 Y24.825 E.00676
G1 X43.399 Y24.996 E.01837
G1 X43.011 Y25.386 E.0341
G1 X42.854 Y25.647 E.01888
G1 X42.795 Y25.963 E.01993
G1 X42.765 Y30.515 E.28215
G1 X29.863 Y32.735 E.81146
G1 X29.266 Y32.71 E.03704
G1 X25.013 Y28.582 E.36737
G1 X24.633 Y27.539 E.06881
G1 X24.426 Y27.314 E.01895
G1 X24.12 Y27.161 E.02121
G1 F1200
G1 X22.68 Y26.758 E.09269
G1 F975.53
G1 X22.52 Y26.713 E.0103
G1 X22.015 Y25.74 E.06795
G1 X20.597 Y23.007 E.19084
G1 X20.093 Y22.033 E.06798
G1 X20.149 Y21.878 E.01022
G1 F1200
G1 X20.386 Y21.223 E.04317
G1 F3900
G1 X20.772 Y21.149 E.02436
G1 X21.054 Y20.989 E.0201

M204 P1250
G1 X20.7 Y20.519 F24000
M204 P800
;TYPE:External perimeter
G1 F2400

G1 X20.798 Y20.331 E.01314
G1 X20.754 Y20.137 E.01233
G1 X18.385 Y16.374 E.27562
G1 F1852.928
G1 X17.954 Y15.805 E.04424
G1 F1200
G1 X18.146 Y15.514 E.02161
G1 F1107.706
G1 X18.188 Y15.45 E.00474
G1 X19.173 Y15.165 E.06356
G1 X23.22 Y13.997 E.26108
G1 X24.205 Y13.712 E.06356
G1 X24.305 Y13.735 E.00636
G1 F1200
G1 X25.299 Y13.963 E.06321
G1 F2400
G1 X25.726 Y13.781 E.02877
G1 X25.833 Y13.691 E.00867
G1 F1200
G1 X26.252 Y13.125 E.04365
G1 F900
G1 X26.497 Y12.794 E.02553

M204 P1000
;TYPE:Overhang perimeter

G1 X26.751 Y12.451 E.02645
G1 X28.325 Y12.265 E.09824
G1 X34.267 Y11.563 E.37087
G1 X35.842 Y11.376 E.09831
G1 X36.875 Y11.567 E.06511

M204 P800
;TYPE:External perimeter

G1 X37.873 Y11.751 E.0629
G1 F1200
G1 X39.443 Y12.041 E.09896
G1 F2027.403
G1 X39.939 Y12.049 E.03075
G1 X40.202 Y12.218 E.01938
G1 F2400
G1 X48.528 Y14.788 E.5401
G1 F2161.177
G1 X48.791 Y14.815 E.01639
G1 X48.885 Y14.896 E.00769
G1 F1828.085
G1 X49.051 Y14.954 E.0109
G1 X49.526 Y15.538 E.04666
G1 F1832.381
G1 X51.399 Y17.844 E.18414
G1 F1673.667
G1 X51.891 Y18.45 E.04838


G1 X51.637 Y19.189 E.04844
G1 F1671.816
G1 X50.563 Y22.316 E.20494
G1 X50.309 Y23.055 E.04844
G1 X50.222 Y23.09 E.00581
G1 F1546.661
G1 X50.006 Y23.292 E.01833
G1 X49.244 Y23.55 E.04987
G1 X44.695 Y25.091 E.2977
G1 X43.934 Y25.349 E.04981
G1 F1459.488
G1 X43.819 Y25.419 E.00834
G1 X43.463 Y25.775 E.03121
G1 F1781.921
G1 X43.391 Y25.967 E.01271
G1 F2174.166
G1 X43.386 Y26.658 E.04283
G1 X43.362 Y30.327 E.22742
G1 X43.358 Y31.018 E.04283
G1 X42.677 Y31.135 E.04283
G1 F2381.927
G1 X30.546 Y33.223 E.76298
G1 F2379.515
G1 X29.901 Y33.334 E.04057
G1 F1200
G1 X29.047 Y33.298 E.05298
G1 F1159.724
G1 X29.014 Y33.296 E.00205
G1 X28.298 Y32.602 E.06181
G1 X25.21 Y29.604 E.26677
G1 X24.494 Y28.91 E.06181
G1 X24.479 Y28.865 E.00294
G1 F1200
G1 X24.162 Y27.927 E.06137
G1 F2400
G1 X24.118 Y27.844 E.00582
G1 F2382.361
G1 X23.96 Y27.735 E.0119
G1 F1200
G1 X23.056 Y27.482 E.05819
G1 F900
G1 X22.661 Y27.372 E.02542

M204 P1000
;TYPE:Overhang perimeter

G1 X22.11 Y27.218 E.03546
G1 X21.33 Y25.715 E.10496
G1 X20.222 Y23.579 E.14915
G1 X19.443 Y22.076 E.10493
G1 X19.636 Y21.542 E.03519

M204 P800
;TYPE:External perimeter

G1 X19.775 Y21.158 E.02531
G1 F1200
G1 X19.944 Y20.694 E.03061
G1 F2400
G1 X20.552 Y20.59 E.03823
G1 X20.619 Y20.558 E.0046

M204 P1250
G1 X20.906 Y20.57 F24000
G1 E-.56 F2100
;WIPE_START
G1 F19200
G1 X20.798 Y20.331 E-.03004
G1 X20.754 Y20.137 E-.02067
G1 X20.296 Y19.41 E-.08929
;WIPE_END
G1 Z.65 F600
G1 X27.583 Y13.464 F24000
G1 Z.45 F600
G1 E.7 F1200
M204 P1500
;TYPE:Solid infill
G1 F6000
G1 X26.781 Y14.266 E.0703
M204 P1250
G1 E-.56 F2100
;WIPE_START
G1 F19200
G1 X27.583 Y13.464 E-.11785
;WIPE_END
G1 E-.02215 F2100
G1 Z.65 F600
G1 X19.756 Y16.209 F24000
G1 Z.45 F600
G1 E.7 F1200
M204 P1500
;WIDTH:0.76891
G1 F5368.677
G1 X19.693 Y16.146 E.00662
G1 X19.606 Y16.169 E.00669
G1 X19.583 Y16.255 E.00662
G1 X19.647 Y16.319 E.00673
G1 X19.733 Y16.295 E.00664
;WIDTH:0.649999
G1 F6000
G1 X19.985 Y16.844 E.03744
G1 X21.061 Y15.769 E.09428
G1 X21.293 Y15.666 E.01573
;WIDTH:0.606825
G1 X21.525 Y15.564 E.01457
;WIDTH:0.56365
G1 X21.463 Y15.58 E.00339
G1 X21.418 Y15.535 E.00337
G1 X21.435 Y15.474 E.00336
G1 X21.496 Y15.457 E.00336
G1 X21.541 Y15.502 E.00337
;WIDTH:0.649999
G1 X22.247 Y15.426 E.04401
G1 X20.311 Y17.362 E.16971
G1 X20.636 Y17.88 E.0379
G1 X23.432 Y15.084 E.24509
G1 X23.67 Y14.787 E.02359
;WIDTH:0.56365
G1 X24.227 Y14.658 E.03031
;WIDTH:0.606825
G1 X24.342 Y14.78 E.00964
;WIDTH:0.649999
G1 X24.457 Y14.903 E.01044
G1 X20.962 Y18.397 E.30632
G1 X21.288 Y18.915 E.03794
G1 X25.145 Y15.058 E.3381
M204 P1250
G1 X26.371 Y14.676 F24000
M204 P1500
G1 F6000
G1 X21.614 Y19.432 E.41694
G1 X21.871 Y20.019 E.03972
G1 X28.539 Y13.35 E.58454
G1 X29.495 Y13.237 E.05967
G1 X20.676 Y22.057 E.7731
G1 X20.684 Y21.776 E.01742
;WIDTH:0.606825
G1 X20.693 Y21.496 E.01611
;WIDTH:0.56365
G1 X20.648 Y21.451 E.00337
G1 X20.586 Y21.467 E.00339
G1 X20.57 Y21.529 E.00339
G1 X20.615 Y21.574 E.00337
G1 X20.677 Y21.558 E.00339
;WIDTH:0.649999
G1 X20.964 Y22.612 E.06771
G1 X30.452 Y13.124 E.8317
G1 X31.408 Y13.011 E.05967
G1 X21.252 Y23.168 E.89029
G1 X21.54 Y23.723 E.03876
G1 X32.365 Y12.898 E.94889
G1 X33.321 Y12.785 E.05967
G1 X21.828 Y24.278 E1.00745
G1 X22.116 Y24.834 E.03881
G1 X34.277 Y12.672 E1.06605
G1 X35.234 Y12.559 E.05973
G1 X22.404 Y25.389 E1.12465
G1 X22.692 Y25.944 E.03876
G1 X36.092 Y12.545 E1.17457
G1 X36.804 Y12.676 E.04487
G1 X23.123 Y26.356 E1.1992
G1 X23.781 Y26.542 E.04238
G1 X37.516 Y12.807 E1.20398
G1 X38.228 Y12.939 E.04488
G1 X24.43 Y26.736 E1.20946
G1 X24.918 Y27.092 E.03744
G1 X38.94 Y13.07 E1.22913
G1 X39.672 Y13.181 E.04589
G1 X25.218 Y27.635 E1.267
G1 X25.438 Y28.259 E.04101
G1 X40.295 Y13.401 E1.30237
G1 X40.94 Y13.6 E.04184
G1 X25.851 Y28.689 E1.32267
G1 X26.279 Y29.104 E.03695
G1 X41.585 Y13.798 E1.34169
G1 X42.23 Y13.997 E.04184
G1 X26.707 Y29.52 E1.36071
G1 X27.135 Y29.935 E.03695
G1 X42.875 Y14.195 E1.37973
G1 X43.52 Y14.394 E.04184
G1 X27.563 Y30.351 E1.39875
G1 X27.991 Y30.766 E.03695
G1 X44.165 Y14.592 E1.41777
G1 X44.81 Y14.79 E.04182
G1 X28.419 Y31.181 E1.4368
G1 X28.847 Y31.597 E.037
G1 X45.455 Y14.989 E1.45582
M73 P2 R43
G1 X46.1 Y15.187 E.04182
G1 X29.275 Y32.012 E1.47484
G1 X29.365 Y32.207 E.01331
;WIDTH:0.606825
G1 X29.456 Y32.401 E.01232
;WIDTH:0.56365
G1 X29.411 Y32.356 E.00337
G1 X29.349 Y32.373 E.00341
G1 X29.333 Y32.434 E.00334
G1 X29.378 Y32.479 E.00337
G1 X29.439 Y32.463 E.00334
;WIDTH:0.649999
G1 X29.919 Y32.211 E.0336
G1 X46.745 Y15.386 E1.47488
G1 X47.39 Y15.584 E.04182
G1 X30.938 Y32.036 E1.44214
G1 X31.957 Y31.86 E.0641
G1 X48.034 Y15.782 E1.40931
G1 X48.561 Y16.099 E.03812
G1 X32.975 Y31.685 E1.36623
G1 X33.994 Y31.51 E.06409
G1 X48.939 Y16.564 E1.31009
G1 X49.318 Y17.029 E.03718
G1 X35.013 Y31.334 E1.25394
G1 X36.031 Y31.159 E.06402
G1 X49.696 Y17.494 E1.19784
G1 X50.075 Y17.959 E.03718
G1 X43.807 Y24.227 E.54944
G1 X43.596 Y24.371 E.01583
;WIDTH:0.606825
G1 X43.386 Y24.516 E.01467
;WIDTH:0.56365
G1 X42.731 Y25.127 E.04748
G1 X42.597 Y25.294 E.01135
;WIDTH:0.649999
G1 X42.318 Y25.716 E.03136
G1 X37.05 Y30.984 E.46178
G1 X36.872 Y31.085 E.01269
;WIDTH:0.606825
G1 X36.693 Y31.187 E.01185
;WIDTH:0.56365
G1 X36.648 Y31.142 E.00337
G1 X36.586 Y31.158 E.00339
G1 X36.57 Y31.22 E.00339
G1 X36.615 Y31.265 E.00337
G1 X36.677 Y31.248 E.00341
M204 P1250
G1 X38.069 Y30.808 F24000
M204 P1500
;WIDTH:0.649999
G1 F6000
G1 X42.289 Y26.588 E.36992
G1 X42.283 Y27.438 E.05269
G1 X39.087 Y30.633 E.28011
G1 X40.106 Y30.458 E.06409
G1 X42.276 Y28.288 E.19022
G1 X42.269 Y29.139 E.05275
G1 X41.125 Y30.282 E.10024
G1 X41.039 Y30.413 E.00971
;WIDTH:0.606825
G1 X40.954 Y30.544 E.00898
;WIDTH:0.56365
G1 X40.909 Y30.499 E.00337
G1 X40.847 Y30.516 E.00341
G1 X40.831 Y30.577 E.00334
G1 X40.876 Y30.623 E.00341
G1 X40.938 Y30.606 E.00341
M204 P1250
G1 X42.289 Y30.12 F24000
M204 P1500
;WIDTH:0.709764
G1 F5852.642
G1 X42.21 Y30.141 E.00557
G1 X42.152 Y30.083 E.00559
G1 X42.173 Y30.004 E.00557
G1 X42.252 Y29.982 E.00559
G1 X42.31 Y30.04 E.00559
M204 P1250
G1 E-.56 F2100
;WIPE_START
G1 F19200
G1 X42.252 Y29.982 E-.00852
G1 X42.173 Y30.004 E-.00852
G1 X42.152 Y30.083 E-.00849
G1 X42.21 Y30.141 E-.00852
G1 X42.289 Y30.12 E-.00849
;WIPE_END
G1 E-.09746 F2100
G1 Z.65 F600
G1 X44.709 Y24.102 F24000
