; generated by PrusaSlicer 2.6.0


; printer_model = MINI
; filament_type = PETG
; nozzle_diameter = 0.4
; bed_temperature = 90
; brim_width = 0
; fill_density = 15%
; layer_height = 0.15
; temperature = 240
; ironing = 0
; support_material = 0
; max_layer_z = 18.05
; extruder_colour = ""
; filament used [mm] = 986.61
; filament used [cm3] = 2.37
; filament used [g] = 3.01
; filament cost = 0.08
; estimated printing time (normal mode) = 32m 6s

;
;

;
;

; external perimeters extrusion width = 0.45mm
; perimeters extrusion width = 0.45mm
; infill extrusion width = 0.45mm
; solid infill extrusion width = 0.45mm
; top infill extrusion width = 0.40mm
; first layer extrusion width = 0.42mm
M73 P0 R32
M201 X2500 Y2500 Z400 E5000
M203 X180 Y180 Z12 E80
M204 P2000 R1250 T2500
M205 X8.00 Y8.00 Z2.00 E10.00
M205 S0 T0
;TYPE:Custom
M862.3 P "MINI"
G90
M83
M104 S170
M140 S85
M109 R170
M190 S85
M204 T1250
G28
G29
M204 T2500
M104 S230
G92 E0
G1 Y-2 X179 F2400
G1 Z3 F720
M109 S230
; intro line
G1 X170 F1000
G1 Z0.2 F720
G1 X110 E8 F900
G1 X40 E10 F700
G92 E0
M221 S95
G21
G90
M83
M900 K0.2
M107
;LAYER_CHANGE
;Z:0.2
;HEIGHT:0.2
;BEFORE_LAYER_CHANGE
G92 E0.0
;0.2
M73 P0 R31
G1 E-3.2 F2700
G1 Z.2 F720
;AFTER_LAYER_CHANGE
;0.2
G1 Z.4
G1 X78.639 Y79.583 F9000
G1 Z.2 F720
G1 E3.2 F1500
M204 P600
;TYPE:Skirt/Brim
;WIDTH:0.42
G1 F1200
G1 X79.705 Y78.569 E.04613
G1 X81 Y78.246 E.04185
G1 X99 Y78.246 E.56438
G1 X100.417 Y78.639 E.04611
G1 X101.431 Y79.705 E.04613
G1 X101.754 Y81 E.04185
G1 X101.754 Y99 E.56438
G1 X101.361 Y100.417 E.04611
G1 X100.295 Y101.431 E.04613
G1 X99 Y101.754 E.04185
G1 X81 Y101.754 E.56438
G1 X79.583 Y101.361 E.04611
M73 P1 R31
G1 X78.569 Y100.295 E.04613
G1 X78.246 Y99 E.04185
G1 X78.246 Y81 E.56438
G1 X78.623 Y79.64 E.04425
M204 P1000
G1 X78.997 Y79.752 F9000
M204 P600
G1 F1200
G1 X79.015 Y79.693 E.00193
G1 X80.06 Y78.817 E.04275
G1 X81 Y78.623 E.03009
G1 X99 Y78.623 E.56438
G1 X100.307 Y79.015 E.04278
G1 X101.183 Y80.06 E.04275
G1 X101.377 Y81 E.03009
G1 X101.377 Y99 E.56438
G1 X100.985 Y100.307 E.04278
G1 X99.94 Y101.183 E.04275
G1 X99 Y101.377 E.03009
G1 X81 Y101.377 E.56438
G1 X79.693 Y100.985 E.04278
G1 X78.817 Y99.94 E.04275
G1 X78.623 Y99 E.03009
G1 X78.623 Y81 E.56438
G1 X78.979 Y79.81 E.03895
M204 P1000
; printing object Shape-Box id:0 copy 0
G1 E-2.24 F2700
;WIPE_START
G1 F7200
G1 X79.015 Y79.693 E-.04361
G1 X80.06 Y78.817 E-.48578
G1 X81 Y78.623 E-.34193
G1 X81.249 Y78.623 E-.08868
;WIPE_END
G1 Z.4 F720
G1 X98.213 Y98.213 F9000
G1 Z.2 F720
G1 E3.2 F1500
M204 P600
;TYPE:Perimeter
;WIDTH:0.419999
G1 F1200
G1 X81.787 Y98.213 E.51502
G1 X81.787 Y81.787 E.51502
G1 X98.213 Y81.787 E.51502
G1 X98.213 Y98.153 E.51314
M204 P1000
G1 X98.59 Y98.59 F9000
M204 P600
;TYPE:External perimeter
G1 F1200
G1 X81.41 Y98.59 E.53867
G1 X81.41 Y81.41 E.53867
G1 X98.59 Y81.41 E.53867
G1 X98.59 Y98.53 E.53678
M204 P1000
G1 X98.204 Y98.486 F9000
G1 E-2.24 F2700
;WIPE_START
G1 F7200
G1 X95.895 Y98.539 E-.96
;WIPE_END
G1 Z.4 F720
G1 X97.275 Y81.957 F9000
G1 Z.2 F720
G1 E3.2 F1500
M204 P600
;TYPE:Solid infill
;WIDTH:0.42297
G1 F1200
G1 X97.874 Y82.556 E.02677
G1 X97.874 Y83.093 E.01697
G1 X96.907 Y82.126 E.04322
G1 X96.369 Y82.126 E.017
G1 X97.874 Y83.631 E.06726
G1 X97.874 Y84.168 E.01697
G1 X95.832 Y82.126 E.09126
G1 X95.294 Y82.126 E.017
G1 X97.874 Y84.706 E.1153
G1 X97.874 Y85.243 E.01697
G1 X94.757 Y82.126 E.1393
G1 X94.22 Y82.126 E.01697
G1 X97.874 Y85.78 E.1633
G1 X97.874 Y86.318 E.017
G1 X93.682 Y82.126 E.18734
G1 X93.145 Y82.126 E.01697
G1 X97.874 Y86.855 E.21134
G1 X97.874 Y87.393 E.017
G1 X92.607 Y82.126 E.23539
G1 X92.07 Y82.126 E.01697
G1 X97.874 Y87.93 E.25939
G1 X97.874 Y88.468 E.017
G1 X91.532 Y82.126 E.28343
G1 X90.995 Y82.126 E.01697
G1 X97.874 Y89.005 E.30743
G1 X97.874 Y89.543 E.017
G1 X90.457 Y82.126 E.33147
G1 X89.92 Y82.126 E.01697
G1 X97.874 Y90.08 E.35547
G1 X97.874 Y90.618 E.017
G1 X89.382 Y82.126 E.37952
G1 X88.845 Y82.126 E.01697
M73 P2 R31
G1 X97.874 Y91.155 E.40351
G1 X97.874 Y91.693 E.017
G1 X88.307 Y82.126 E.42756
G1 X87.77 Y82.126 E.01697
G1 X97.874 Y92.23 E.45156
G1 X97.874 Y92.768 E.017
G1 X87.232 Y82.126 E.4756
G1 X86.695 Y82.126 E.01697
G1 X97.874 Y93.305 E.4996
G1 X97.874 Y93.843 E.017
G1 X86.157 Y82.126 E.52364
G1 X85.62 Y82.126 E.01697
G1 X97.874 Y94.38 E.54764
G1 X97.874 Y94.918 E.017
G1 X85.082 Y82.126 E.57169
G1 X84.545 Y82.126 E.01697
G1 X97.874 Y95.455 E.59569
G1 X97.874 Y95.992 E.01697
G1 X84.008 Y82.126 E.61968
G1 X83.47 Y82.126 E.017
G1 X97.874 Y96.53 E.64373
G1 X97.874 Y97.067 E.01697
G1 X82.933 Y82.126 E.66773
G1 X82.395 Y82.126 E.017
G1 X97.874 Y97.605 E.69177
G1 X97.874 Y97.874 E.0085
G1 X97.605 Y97.874 E.0085
G1 X82.126 Y82.395 E.69177
G1 X82.126 Y82.933 E.017
G1 X97.067 Y97.874 E.66773
G1 X96.53 Y97.874 E.01697
G1 X82.126 Y83.47 E.64373
G1 X82.126 Y84.008 E.017
G1 X95.992 Y97.874 E.61968
G1 X95.455 Y97.874 E.01697
G1 X82.126 Y84.545 E.59569
G1 X82.126 Y85.083 E.017
G1 X94.917 Y97.874 E.57164
G1 X94.38 Y97.874 E.01697
G1 X82.126 Y85.62 E.54764
G1 X82.126 Y86.158 E.017
M73 P3 R31
G1 X93.842 Y97.874 E.5236
G1 X93.305 Y97.874 E.01697
G1 X82.126 Y86.695 E.4996
G1 X82.126 Y87.232 E.01697
G1 X92.768 Y97.874 E.4756
G1 X92.23 Y97.874 E.017
G1 X82.126 Y87.77 E.45156
G1 X82.126 Y88.307 E.01697
G1 X91.693 Y97.874 E.42756
G1 X91.155 Y97.874 E.017
G1 X82.126 Y88.845 E.40351
G1 X82.126 Y89.382 E.01697
G1 X90.618 Y97.874 E.37952
G1 X90.08 Y97.874 E.017
G1 X82.126 Y89.92 E.35547
G1 X82.126 Y90.457 E.01697
G1 X89.543 Y97.874 E.33147
G1 X89.005 Y97.874 E.017
G1 X82.126 Y90.995 E.30743
G1 X82.126 Y91.532 E.01697
G1 X88.468 Y97.874 E.28343
G1 X87.93 Y97.874 E.017
G1 X82.126 Y92.07 E.25939
G1 X82.126 Y92.607 E.01697
G1 X87.393 Y97.874 E.23539
G1 X86.855 Y97.874 E.017
G1 X82.126 Y93.145 E.21134
G1 X82.126 Y93.682 E.01697
G1 X86.318 Y97.874 E.18734
G1 X85.78 Y97.874 E.017
G1 X82.126 Y94.22 E.1633
G1 X82.126 Y94.757 E.01697
M73 P3 R30
G1 X85.243 Y97.874 E.1393
G1 X84.705 Y97.874 E.017
G1 X82.126 Y95.295 E.11526
G1 X82.126 Y95.832 E.01697
G1 X84.168 Y97.874 E.09126
G1 X83.631 Y97.874 E.01697
G1 X82.126 Y96.369 E.06726
G1 X82.126 Y96.907 E.017
G1 X83.093 Y97.874 E.04322
G1 X82.556 Y97.874 E.01697
G1 X81.957 Y97.275 E.02677
M204 P1000
; stop printing object Shape-Box id:0 copy 0
;LAYER_CHANGE
;Z:0.35
;HEIGHT:0.15
;BEFORE_LAYER_CHANGE
G92 E0.0
;0.35
G1 E-2.24 F2700
;WIPE_START
G1 F7200
G1 X82.556 Y97.874 E-.30178
G1 X83.093 Y97.874 E-.19131
G1 X82.166 Y96.947 E-.46691
;WIPE_END
G1 Z.4 F720
;AFTER_LAYER_CHANGE
;0.35
M104 S240
M140 S90
G1 X78.246 Y96.947 F9000
G1 Z.35 F720
G1 E3.2 F1500
;TYPE:Skirt/Brim
;WIDTH:0.42
G1 F2400
G1 X78.246 Y81 E.38568
G1 X78.639 Y79.583 E.03556
G1 X79.705 Y78.569 E.03558
G1 X81 Y78.246 E.03228
G1 X99 Y78.246 E.43533
G1 X100.417 Y78.639 E.03556
G1 X101.431 Y79.705 E.03558
G1 X101.754 Y81 E.03228
G1 X101.754 Y99 E.43533
G1 X101.361 Y100.417 E.03556
G1 X100.295 Y101.431 E.03558
G1 X99 Y101.754 E.03228
G1 X81 Y101.754 E.43533
G1 X79.583 Y101.361 E.03556
G1 X78.569 Y100.295 E.03558
G1 X78.246 Y99 E.03228
G1 X78.246 Y97.007 E.0482
G1 X78.623 Y97.007 F9000
G1 F2400
G1 X78.623 Y81 E.38713
G1 X79.015 Y79.693 E.033
G1 X80.06 Y78.817 E.03298
G1 X81 Y78.623 E.02321
G1 X99 Y78.623 E.43533
G1 X100.307 Y79.015 E.033
G1 X101.183 Y80.06 E.03298
G1 X101.377 Y81 E.02321
G1 X101.377 Y99 E.43533
G1 X100.985 Y100.307 E.033
G1 X99.94 Y101.183 E.03298
G1 X99 Y101.377 E.02321
G1 X81 Y101.377 E.43533
G1 X79.693 Y100.985 E.033
G1 X78.817 Y99.94 E.03298
G1 X78.623 Y99 E.02321
G1 X78.623 Y97.067 E.04675
; printing object Shape-Box id:0 copy 0
G1 E-2.24 F2700
;WIPE_START
G1 F7200
G1 X78.623 Y94.372 E-.96
;WIPE_END
G1 Z.55 F720
G1 X98.357 Y98.357 F9000
G1 Z.35 F720
G1 E3.2 F1500
M204 P900
;TYPE:Perimeter
;WIDTH:0.449999
G1 F2400
G1 X81.643 Y98.357 E.4355
G1 X81.643 Y81.643 E.4355
G1 X98.357 Y81.643 E.4355
G1 X98.357 Y98.297 E.43393
M204 P1000
G1 X98.775 Y98.775 F9000
M204 P800
;TYPE:External perimeter
G1 F1799.998
G1 X98.325 Y98.775 E.01173
G1 X81.675 Y98.775 E.43383
G1 X81.225 Y98.775 E.01173
G1 X81.225 Y98.325 E.01173
G1 X81.225 Y81.675 E.43383
G1 X81.225 Y81.225 E.01173
M73 P4 R30
G1 X81.675 Y81.225 E.01173
G1 X98.325 Y81.225 E.43383
G1 X98.775 Y81.225 E.01173
G1 X98.775 Y81.675 E.01173
G1 X98.775 Y98.265 E.43226
G1 X98.775 Y98.715 E.01173
M204 P1000
G1 X98.389 Y98.671 F9000
G1 E-2.24 F2700
;WIPE_START
G1 F7200
G1 X96.08 Y98.724 E-.96
;WIPE_END
G1 Z.55 F720
G1 X82.132 Y82.053 F9000
G1 Z.35 F720
G1 E3.2 F1500
M204 P1500
;TYPE:Solid infill
;WIDTH:0.55137
G1 F4800
G1 X82.086 Y82.007 E.00211
G1 X82.024 Y82.024 E.00208
G1 X82.007 Y82.086 E.00208
G1 X82.053 Y82.132 E.00211
G1 X82.115 Y82.115 E.00208
;WIDTH:0.449999
G1 X82.019 Y82.783 E.01758
G1 X82.783 Y82.019 E.02815
G1 X82.878 Y81.945 E.00314
;WIDTH:0.411095
G1 X82.973 Y81.871 E.00285
;WIDTH:0.37219
G1 X82.932 Y81.882 E.0009
G1 X82.913 Y81.81 E.00158
G1 X82.984 Y81.83 E.00156
;WIDTH:0.449999
G1 X83.374 Y82.019 E.01129
G1 X82.019 Y83.374 E.04993
G1 X82.019 Y83.965 E.0154
G1 X83.965 Y82.019 E.07171
G1 X84.555 Y82.019 E.01537
G1 X82.019 Y84.555 E.09345
G1 X82.019 Y85.146 E.0154
G1 X85.146 Y82.019 E.11522
G1 X85.737 Y82.019 E.0154
G1 X82.019 Y85.737 E.137
G1 X82.019 Y86.328 E.0154
G1 X86.328 Y82.019 E.15878
G1 X86.919 Y82.019 E.0154
G1 X82.019 Y86.919 E.18056
G1 X82.019 Y87.51 E.0154
G1 X87.51 Y82.019 E.20233
G1 X88.101 Y82.019 E.0154
G1 X82.019 Y88.101 E.22411
G1 X82.019 Y88.691 E.01537
G1 X88.691 Y82.019 E.24585
G1 X89.282 Y82.019 E.0154
G1 X82.019 Y89.282 E.26763
G1 X82.019 Y89.873 E.0154
G1 X89.873 Y82.019 E.28941
G1 X90.464 Y82.019 E.0154
G1 X82.019 Y90.464 E.31118
G1 X82.019 Y91.055 E.0154
G1 X91.055 Y82.019 E.33296
G1 X91.646 Y82.019 E.0154
G1 X82.019 Y91.646 E.35474
G1 X82.019 Y92.237 E.0154
G1 X92.237 Y82.019 E.37652
G1 X92.828 Y82.019 E.0154
G1 X82.019 Y92.828 E.39829
G1 X82.019 Y93.418 E.01537
G1 X93.418 Y82.019 E.42003
G1 X94.009 Y82.019 E.0154
G1 X82.019 Y94.009 E.44181
G1 X82.019 Y94.6 E.0154
G1 X94.6 Y82.019 E.46359
G1 X95.191 Y82.019 E.0154
G1 X82.019 Y95.191 E.48537
G1 X82.019 Y95.782 E.0154
G1 X95.782 Y82.019 E.50714
G1 X96.373 Y82.019 E.0154
G1 X82.019 Y96.373 E.52892
G1 X82.019 Y96.964 E.0154
G1 X96.964 Y82.019 E.5507
G1 X97.555 Y82.019 E.0154
G1 X82.019 Y97.555 E.57248
G1 X81.952 Y98.078 E.01374
;WIDTH:0.37219
G1 X81.881 Y98.059 E.00156
G1 X81.9 Y98.13 E.00156
G1 X81.941 Y98.119 E.0009
;WIDTH:0.411095
G1 X82.062 Y98.05 E.00329
;WIDTH:0.449999
G1 X82.183 Y97.981 E.00363
G1 X97.981 Y82.183 E.58213
G1 X98.05 Y82.062 E.00363
;WIDTH:0.411095
G1 X98.119 Y81.941 E.00329
;WIDTH:0.37219
G1 X98.078 Y81.952 E.0009
G1 X98.059 Y81.881 E.00156
G1 X98.13 Y81.9 E.00156
M204 P1000
G1 X97.981 Y82.774 F9000
M204 P1500
;WIDTH:0.449999
G1 F4800
G1 X82.774 Y97.981 E.56035
G1 X83.365 Y97.981 E.0154
G1 X97.981 Y83.365 E.53858
G1 X97.981 Y83.956 E.0154
G1 X83.956 Y97.981 E.5168
G1 X84.547 Y97.981 E.0154
G1 X97.981 Y84.547 E.49502
G1 X97.981 Y85.137 E.01537
G1 X85.137 Y97.981 E.47328
G1 X85.728 Y97.981 E.0154
G1 X97.981 Y85.728 E.4515
G1 X97.981 Y86.319 E.0154
G1 X86.319 Y97.981 E.42973
G1 X86.91 Y97.981 E.0154
G1 X97.981 Y86.91 E.40795
G1 X97.981 Y87.501 E.0154
G1 X87.501 Y97.981 E.38617
G1 X88.092 Y97.981 E.0154
G1 X97.981 Y88.092 E.36439
G1 X97.981 Y88.683 E.0154
G1 X88.683 Y97.981 E.34262
G1 X89.274 Y97.981 E.0154
G1 X97.981 Y89.274 E.32084
G1 X97.981 Y89.864 E.01537
G1 X89.864 Y97.981 E.2991
G1 X90.455 Y97.981 E.0154
G1 X97.981 Y90.455 E.27732
G1 X97.981 Y91.046 E.0154
G1 X91.046 Y97.981 E.25554
G1 X91.637 Y97.981 E.0154
G1 X97.981 Y91.637 E.23377
G1 X97.981 Y92.228 E.0154
G1 X92.228 Y97.981 E.21199
G1 X92.819 Y97.981 E.0154
G1 X97.981 Y92.819 E.19021
G1 X97.981 Y93.41 E.0154
G1 X93.41 Y97.981 E.16843
G1 X94.001 Y97.981 E.0154
G1 X97.981 Y94.001 E.14666
G1 X97.981 Y94.591 E.01537
G1 X94.591 Y97.981 E.12492
G1 X95.182 Y97.981 E.0154
G1 X97.981 Y95.182 E.10314
G1 X97.981 Y95.773 E.0154
G1 X95.773 Y97.981 E.08136
G1 X96.364 Y97.981 E.0154
G1 X97.981 Y96.364 E.05958
G1 X97.981 Y96.955 E.0154
G1 X96.955 Y97.981 E.03781
G1 X97.546 Y97.981 E.0154
G1 X97.981 Y97.546 E.01603
M204 P1000
; stop printing object Shape-Box id:0 copy 0
;LAYER_CHANGE
;Z:0.5
;HEIGHT:0.15
;BEFORE_LAYER_CHANGE
G92 E0.0
;0.5
G1 E-2.24 F2700
;WIPE_START
G1 F7200
G1 X97.546 Y97.981 E-.21916
G1 X96.955 Y97.981 E-.21054
G1 X97.981 Y96.955 E-.51691
G1 X97.981 Y96.917 E-.01339
;WIPE_END
G1 Z.55 F720
;AFTER_LAYER_CHANGE
;0.5
G1 X101.754 Y96.917 F9000
G1 Z.5 F720
G1 E3.2 F1500
;TYPE:Skirt/Brim
;WIDTH:0.42
G1 F2400
G1 X101.754 Y99 E.05038
G1 X101.361 Y100.417 E.03556
G1 X100.295 Y101.431 E.03558
G1 X99 Y101.754 E.03228
G1 X81 Y101.754 E.43533
G1 X79.583 Y101.361 E.03556
G1 X78.569 Y100.295 E.03558
G1 X78.246 Y99 E.03228
G1 X78.246 Y81 E.43533
G1 X78.639 Y79.583 E.03556
G1 X79.705 Y78.569 E.03558
G1 X81 Y78.246 E.03228
G1 X99 Y78.246 E.43533
G1 X100.417 Y78.639 E.03556
G1 X101.431 Y79.705 E.03558
G1 X101.754 Y81 E.03228
G1 X101.754 Y96.857 E.3835
G1 X101.377 Y96.857 F9000
G1 F2400
G1 X101.377 Y99 E.05183
G1 X100.985 Y100.307 E.033
G1 X99.94 Y101.183 E.03298
G1 X99 Y101.377 E.02321
G1 X81 Y101.377 E.43533
G1 X79.693 Y100.985 E.033
G1 X78.817 Y99.94 E.03298
G1 X78.623 Y99 E.02321
G1 X78.623 Y81 E.43533
G1 X79.015 Y79.693 E.033
G1 X80.06 Y78.817 E.03298
G1 X81 Y78.623 E.02321
G1 X99 Y78.623 E.43533
G1 X100.307 Y79.015 E.033
G1 X101.183 Y80.06 E.03298
G1 X101.377 Y81 E.02321
G1 X101.377 Y96.797 E.38205
; printing object Shape-Box id:0 copy 0
G1 E-2.24 F2700
;WIPE_START
G1 F7200
G1 X101.377 Y99 E-.78482
G1 X101.236 Y99.471 E-.17518
;WIPE_END
G1 Z.7 F720
G1 X98.357 Y98.357 F9000
G1 Z.5 F720
G1 E3.2 F1500
M204 P900
;TYPE:Perimeter
;WIDTH:0.449999
G1 F2053.943
G1 X81.643 Y98.357 E.4355
G1 F2152.407
M73 P5 R30
G1 X81.643 Y81.643 E.4355
G1 X98.357 Y81.643 E.4355
G1 F2038.793
G1 X98.357 Y98.297 E.43393
M204 P1000
G1 X98.775 Y98.775 F9000
M204 P800
;TYPE:External perimeter
G1 F1659.827
G1 X98.325 Y98.775 E.01173
G1 X81.675 Y98.775 E.43383
G1 F1699.711
G1 X81.225 Y98.775 E.01173
G1 X81.225 Y98.325 E.01173
G1 X81.225 Y81.675 E.43383
G1 X81.225 Y81.225 E.01173
G1 X81.675 Y81.225 E.01173
G1 X98.325 Y81.225 E.43383
G1 X98.775 Y81.225 E.01173
G1 F1709.489
G1 X98.775 Y81.675 E.01173
G1 F1655.558
G1 X98.775 Y98.265 E.43226
G1 F1653.613
G1 X98.775 Y98.715 E.01173
M204 P1000
G1 X98.389 Y98.671 F9000
G1 E-2.24 F2700
;WIPE_START
G1 F7200
G1 X96.08 Y98.724 E-.96
;WIPE_END
G1 Z.7 F720
G1 X82.053 Y97.868 F9000
G1 Z.5 F720
G1 E3.2 F1500
M204 P1500
;TYPE:Solid infill
;WIDTH:0.55137
G1 F4800
G1 X82.007 Y97.914 E.00211
G1 X82.024 Y97.976 E.00208
G1 X82.086 Y97.993 E.00208
G1 X82.132 Y97.947 E.00211
G1 X82.115 Y97.885 E.00208
;WIDTH:0.449999
G1 X82.019 Y97.217 E.01758
G1 X82.783 Y97.981 E.02815
G1 X83.374 Y97.981 E.0154
G1 X82.019 Y96.626 E.04993
G1 X82.019 Y96.035 E.0154
G1 X83.965 Y97.981 E.07171
G1 X84.555 Y97.981 E.01537
G1 X82.019 Y95.445 E.09345
G1 X82.019 Y94.854 E.0154
G1 X85.146 Y97.981 E.11522
G1 X85.737 Y97.981 E.0154
G1 X82.019 Y94.263 E.137
G1 X82.019 Y93.672 E.0154
G1 X86.328 Y97.981 E.15878
G1 X86.919 Y97.981 E.0154
G1 X82.019 Y93.081 E.18056
G1 X82.019 Y92.49 E.0154
G1 X87.51 Y97.981 E.20233
G1 X88.101 Y97.981 E.0154
G1 X82.019 Y91.899 E.22411
G1 X82.019 Y91.309 E.01537
G1 X88.691 Y97.981 E.24585
G1 X89.282 Y97.981 E.0154
G1 X82.019 Y90.718 E.26763
G1 X82.019 Y90.127 E.0154
G1 X89.873 Y97.981 E.28941
G1 X90.464 Y97.981 E.0154
G1 X82.019 Y89.536 E.31118
G1 X82.019 Y88.945 E.0154
G1 X91.055 Y97.981 E.33296
G1 X91.646 Y97.981 E.0154
G1 X82.019 Y88.354 E.35474
G1 X82.019 Y87.763 E.0154
G1 X92.237 Y97.981 E.37652
G1 X92.828 Y97.981 E.0154
G1 X82.019 Y87.172 E.39829
G1 X82.019 Y86.582 E.01537
G1 X93.418 Y97.981 E.42003
G1 X94.009 Y97.981 E.0154
G1 X82.019 Y85.991 E.44181
G1 X82.019 Y85.4 E.0154
G1 X94.6 Y97.981 E.46359
G1 X95.191 Y97.981 E.0154
G1 X82.019 Y84.809 E.48537
G1 X82.019 Y84.218 E.0154
G1 X95.782 Y97.981 E.50714
G1 X96.373 Y97.981 E.0154
G1 X82.019 Y83.627 E.52892
G1 X82.019 Y83.036 E.0154
G1 X96.964 Y97.981 E.5507
G1 X97.555 Y97.981 E.0154
G1 X82.019 Y82.445 E.57248
G1 X81.9 Y81.87 E.0153
;WIDTH:0.37219
G1 X81.881 Y81.941 E.00156
G1 X81.952 Y81.922 E.00156
G1 X81.941 Y81.881 E.0009
;WIDTH:0.411095
