; generated by PrusaSlicer 2.5.0 on 2023-02-08 at 12:28:39 UTC


;
;

;
;
;

; external perimeters extrusion width = 0.45mm
; perimeters extrusion width = 0.45mm
; infill extrusion width = 0.45mm
; solid infill extrusion width = 0.45mm
; top infill extrusion width = 0.40mm
; first layer extrusion width = 0.42mm

M73 P0 R5
M201 X2500 Y2500 Z400 E5000 ; sets maximum accelerations, mm/sec^2
M203 X180 Y180 Z12 E80 ; sets maximum feedrates, mm / sec
M204 P1250 R1250 T2500 ; sets acceleration (P, T) and retract acceleration (R), mm/sec^2
M205 X8.00 Y8.00 Z2.00 E10.00 ; sets the jerk limits, mm/sec
M205 S0 T0 ; sets the minimum extruding and travel feed rate, mm/sec
M107
;TYPE:Custom
M862.3 P "MINI" ; printer model check
G90 ; use absolute coordinates
M83 ; extruder relative mode
M104 S170 ; set extruder temp for bed leveling
M140 S85 ; set bed temp
M109 R170 ; wait for bed leveling temp
M190 S85 ; wait for bed temp
M204 T1250 ; set travel acceleration
G28 ; home all without mesh bed level
G29 ; mesh bed leveling
M204 T2500 ; restore travel acceleration
M104 S240 ; set extruder temp
G92 E0
G1 Y-2 X179 F2400
G1 Z3 F720
M109 S240 ; wait for extruder temp

; intro line
M73 P1 R5
G1 X170 F1000
G1 Z0.2 F720
G1 X110 E8 F900
G1 X40 E10 F700
G92 E0

M221 S95 ; set flow
G21 ; set units to millimeters
G90 ; use absolute coordinates
M83 ; use relative distances for extrusion
M900 K0.2 ; Filament gcode
M107
;LAYER_CHANGE
;Z:0.2
;HEIGHT:0.2
;BEFORE_LAYER_CHANGE
G92 E0.0
;0.2


M73 P2 R5
G1 E-3.2 F2400
M73 P4 R5
G1 Z.2 F720
;AFTER_LAYER_CHANGE
;0.2
G1 Z.4
G1 X84.405 Y83.403 F9000
G1 Z.2 F720
G1 E3.2 F1500
M204 P800
;TYPE:Skirt/Brim
;WIDTH:0.42
G1 F1200
M73 P5 R5
G1 X86.061 Y82.929 E.054
G1 X93.939 Y82.929 E.24703
G1 X95.459 Y83.323 E.04923
G1 X96.597 Y84.405 E.04923
G1 X97.071 Y86.061 E.054
G1 X97.071 Y93.939 E.24703
G1 X96.677 Y95.459 E.04923
G1 X95.595 Y96.597 E.04923
G1 X93.939 Y97.071 E.054
G1 X86.061 Y97.071 E.24703
G1 X84.541 Y96.677 E.04923
G1 X83.403 Y95.595 E.04923
G1 X82.929 Y93.939 E.054
G1 X82.929 Y86.061 E.24703
G1 X83.323 Y84.541 E.04923
G1 X84.364 Y83.446 E.04735
M204 P1000
G1 X84.646 Y83.744 F9000
M204 P800
G1 F1200
G1 X84.765 Y83.63 E.00517
G1 X86.061 Y83.307 E.04186
G1 X93.939 Y83.307 E.24703
G1 X95.357 Y83.699 E.04612
G1 X96.37 Y84.765 E.04612
G1 X96.693 Y86.061 E.04186
G1 X96.693 Y93.939 E.24703
M73 P6 R5
G1 X96.301 Y95.357 E.04612
G1 X95.235 Y96.37 E.04612
G1 X93.939 Y96.693 E.04186
G1 X86.061 Y96.693 E.24703
G1 X84.643 Y96.301 E.04612
G1 X83.63 Y95.235 E.04612
G1 X83.307 Y93.939 E.04186
G1 X83.307 Y86.061 E.24703
G1 X83.699 Y84.643 E.04612
G1 X84.602 Y83.785 E.03907
M204 P1000
G1 X84.862 Y84.094 F9000
M204 P800
G1 F1200
G1 X85.121 Y83.877 E.0106
G1 X86.061 Y83.684 E.03008
G1 X93.939 Y83.684 E.24703
G1 X95.246 Y84.075 E.04278
G1 X96.123 Y85.121 E.04278
G1 X96.316 Y86.061 E.03008
G1 X96.316 Y93.939 E.24703
G1 X95.925 Y95.246 E.04278
G1 X94.879 Y96.123 E.04278
G1 X93.939 Y96.316 E.03008
G1 X86.061 Y96.316 E.24703
G1 X84.754 Y95.925 E.04278
M73 P7 R5
G1 X83.877 Y94.879 E.04278
G1 X83.684 Y93.939 E.03008
G1 X83.684 Y86.061 E.24703
G1 X84.075 Y84.754 E.04278
G1 X84.816 Y84.133 E.0303
M204 P1000
; printing object Shape-Box id:0 copy 0
G1 E-2.24 F2400
;WIPE_START
G1 F7200
G1 X85.121 Y83.877 E-.12607
G1 X86.061 Y83.684 E-.30384
G1 X87.583 Y83.684 E-.48209
;WIPE_END
G1 E-.048 F2400
G1 Z.4 F720
G1 X86.848 Y86.848 F9000
G1 Z.2 F720
G1 E3.2 F1500
M204 P800
;TYPE:Perimeter
;WIDTH:0.419999
G1 F1200
G1 X93.152 Y86.848 E.19767
G1 X93.152 Y93.152 E.19767
G1 X86.848 Y93.152 E.19767
G1 X86.848 Y86.908 E.19579
M204 P1000
G1 X86.471 Y86.471 F9000
M204 P800
;TYPE:External perimeter
G1 F1200
G1 X93.529 Y86.471 E.22132
G1 X93.529 Y93.529 E.22132
G1 X86.471 Y93.529 E.22132
M73 P8 R5
G1 X86.471 Y86.531 E.21944
M204 P1000
G1 X86.857 Y86.574 F9000
G1 E-2.24 F2400
;WIPE_START
G1 F7200
G1 X89.351 Y86.506 E-.912
;WIPE_END
G1 E-.048 F2400
G1 Z.4 F720
G1 X93.039 Y87.757 F9000
G1 Z.2 F720
G1 E3.2 F1500
M204 P800
;TYPE:Solid infill
;WIDTH:0.436071
G1 F1200
G1 X92.412 Y87.131 E.02897
G1 X91.856 Y87.131 E.01818
G1 X92.869 Y88.144 E.04683
G1 X92.869 Y88.7 E.01818
G1 X91.3 Y87.131 E.07254
G1 X90.744 Y87.131 E.01818
G1 X92.869 Y89.256 E.09824
G1 X92.869 Y89.812 E.01818
G1 X90.188 Y87.131 E.12395
G1 X89.632 Y87.131 E.01818
G1 X92.869 Y90.368 E.14965
G1 X92.869 Y90.924 E.01818
G1 X89.076 Y87.131 E.17536
G1 X88.52 Y87.131 E.01818
G1 X92.869 Y91.48 E.20106
G1 X92.869 Y92.036 E.01818
G1 X87.964 Y87.131 E.22677
G1 X87.408 Y87.131 E.01818
G1 X92.869 Y92.592 E.25247
G1 X92.869 Y92.869 E.00909
M73 P9 R4
G1 X92.591 Y92.869 E.00909
G1 X87.131 Y87.409 E.25246
G1 X87.131 Y87.965 E.01818
G1 X92.035 Y92.869 E.22676
G1 X91.479 Y92.869 E.01818
G1 X87.131 Y88.521 E.20106
G1 X87.131 Y89.077 E.01818
G1 X90.923 Y92.869 E.17535
G1 X90.367 Y92.869 E.01818
G1 X87.131 Y89.633 E.14965
G1 X87.131 Y90.189 E.01818
G1 X89.811 Y92.869 E.12394
G1 X89.255 Y92.869 E.01818
G1 X87.131 Y90.745 E.09824
G1 X87.131 Y91.301 E.01818
G1 X88.699 Y92.869 E.07253
G1 X88.143 Y92.869 E.01818
G1 X87.131 Y91.857 E.04683
G1 X87.131 Y92.413 E.01818
G1 X87.757 Y93.039 E.02897
M204 P1000
; stop printing object Shape-Box id:0 copy 0
;LAYER_CHANGE
;Z:0.4
;HEIGHT:0.2
;BEFORE_LAYER_CHANGE
G92 E0.0
;0.4


G1 E-2.24 F2400
;WIPE_START
G1 F7200
G1 X87.131 Y92.413 E-.2806
G1 X87.131 Y91.857 E-.17607
G1 X88.143 Y92.869 E-.4536
G1 X88.149 Y92.869 E-.00174
;WIPE_END
G1 E-.048 F2400
G1 Z.4 F720
;AFTER_LAYER_CHANGE
;0.4
M104 S250 ; set temperature
M140 S90 ; set bed temperature
G1 Z.6
G1 X88.149 Y97.071 F9000
G1 Z.4 F720
G1 E3.2 F1500
;TYPE:Skirt/Brim
;WIDTH:0.42
G1 F1323
M73 P10 R4
G1 X86.061 Y97.071 E.06548
G1 X84.541 Y96.677 E.04923
G1 X83.403 Y95.595 E.04923
G1 X82.929 Y93.939 E.054
G1 X82.929 Y86.061 E.24703
G1 X83.323 Y84.541 E.04923
G1 X84.405 Y83.403 E.04923
G1 X86.061 Y82.929 E.054
G1 X93.939 Y82.929 E.24703
G1 X95.459 Y83.323 E.04923
G1 X96.597 Y84.405 E.04923
G1 X97.071 Y86.061 E.054
G1 X97.071 Y93.939 E.24703
G1 X96.677 Y95.459 E.04923
G1 X95.595 Y96.597 E.04923
G1 X93.939 Y97.071 E.054
G1 X88.209 Y97.071 E.17967
G1 X88.209 Y96.693 F9000
G1 F1323
G1 X86.061 Y96.693 E.06736
G1 X84.643 Y96.301 E.04612
G1 X83.63 Y95.235 E.04612
G1 X83.307 Y93.939 E.04186
G1 X83.307 Y86.061 E.24703
G1 X83.699 Y84.643 E.04612
G1 X84.765 Y83.63 E.04612
G1 X86.061 Y83.307 E.04186
G1 X93.939 Y83.307 E.24703
M73 P11 R4
G1 X95.357 Y83.699 E.04612
G1 X96.37 Y84.765 E.04612
G1 X96.693 Y86.061 E.04186
G1 X96.693 Y93.939 E.24703
G1 X96.301 Y95.357 E.04612
G1 X95.235 Y96.37 E.04612
G1 X93.939 Y96.693 E.04186
G1 X88.269 Y96.693 E.17779
G1 X88.269 Y96.316 F9000
G1 F1323
G1 X86.061 Y96.316 E.06924
G1 X84.754 Y95.925 E.04278
G1 X83.877 Y94.879 E.04278
G1 X83.684 Y93.939 E.03008
G1 X83.684 Y86.061 E.24703
G1 X84.075 Y84.754 E.04278
G1 X85.121 Y83.877 E.04278
G1 X86.061 Y83.684 E.03008
G1 X93.939 Y83.684 E.24703
G1 X95.246 Y84.075 E.04278
G1 X96.123 Y85.121 E.04278
G1 X96.316 Y86.061 E.03008
G1 X96.316 Y93.939 E.24703
G1 X95.925 Y95.246 E.04278
G1 X94.879 Y96.123 E.04278
G1 X93.939 Y96.316 E.03008
G1 X88.329 Y96.316 E.17591
; printing object Shape-Box id:0 copy 0
G1 E-2.24 F2400
;WIPE_START
M73 P12 R4
G1 F7200
G1 X86.061 Y96.316 E-.71828
G1 X85.475 Y96.141 E-.19372
;WIPE_END
G1 E-.048 F2400
G1 Z.6 F720
G1 X86.693 Y93.307 F9000
G1 Z.4 F720
G1 E3.2 F1500
M204 P800
;TYPE:Perimeter
;WIDTH:0.449999
G1 F1323
G1 X86.693 Y86.693 E.22389
G1 X93.307 Y86.693 E.22389
G1 X93.307 Y93.307 E.22389
G1 X86.753 Y93.307 E.22186
M204 P1000
G1 X86.286 Y93.714 F9000
M204 P800
;TYPE:External perimeter
G1 F1323
G1 X86.286 Y86.286 E.25145
G1 X93.714 Y86.286 E.25145
G1 X93.714 Y93.714 E.25145
G1 X86.346 Y93.714 E.24942
M204 P1000
G1 X86.389 Y93.328 F9000
M73 P13 R4
G1 E-2.24 F2400
;WIPE_START
G1 F7200
G1 X86.322 Y90.834 E-.912
;WIPE_END
G1 E-.048 F2400
G1 Z.6 F720
G1 X92.352 Y93.185 F9000
G1 Z.4 F720
G1 E3.2 F1500
;TYPE:Solid infill
;WIDTH:0.455033
G1 F1323
G1 X93.002 Y92.535 E.03152
G1 X93.002 Y91.952 E.01997
G1 X91.952 Y93.002 E.05089
G1 X91.369 Y93.002 E.01997
G1 X93.002 Y91.369 E.07913
G1 X93.002 Y90.786 E.01997
G1 X90.786 Y93.002 E.10737
G1 X90.203 Y93.002 E.01997
G1 X93.002 Y90.203 E.13562
G1 X93.002 Y89.621 E.01997
G1 X89.621 Y93.002 E.16386
G1 X89.038 Y93.002 E.01997
G1 X93.002 Y89.038 E.19211
G1 X93.002 Y88.455 E.01997
G1 X88.455 Y93.002 E.22035
G1 X87.872 Y93.002 E.01997
G1 X93.002 Y87.872 E.24859
G1 X93.002 Y87.289 E.01997
G1 X87.289 Y93.002 E.27684
G1 X86.998 Y93.002 E.00998
G1 X86.998 Y92.71 E.00999
G1 X92.71 Y86.998 E.27683
G1 X92.128 Y86.998 E.01997
G1 X86.998 Y92.128 E.24859
M73 P14 R4
G1 X86.998 Y91.545 E.01997
G1 X91.545 Y86.998 E.22034
G1 X90.962 Y86.998 E.01997
G1 X86.998 Y90.962 E.1921
G1 X86.998 Y90.379 E.01997
G1 X90.379 Y86.998 E.16386
G1 X89.796 Y86.998 E.01997
G1 X86.998 Y89.796 E.13561
G1 X86.998 Y89.214 E.01997
G1 X89.214 Y86.998 E.10737
G1 X88.631 Y86.998 E.01997
G1 X86.998 Y88.631 E.07912
G1 X86.998 Y88.048 E.01997
G1 X88.048 Y86.998 E.05088
G1 X87.465 Y86.998 E.01997
G1 X86.815 Y87.648 E.03151
; stop printing object Shape-Box id:0 copy 0
;LAYER_CHANGE
;Z:0.6
;HEIGHT:0.2
;BEFORE_LAYER_CHANGE
G92 E0.0
;0.6


G1 E-2.24 F2400
;WIPE_START
G1 F7200
G1 X87.465 Y86.998 E-.29122
G1 X88.048 Y86.998 E-.18456
G1 X87.074 Y87.972 E-.43622
;WIPE_END
G1 E-.048 F2400
G1 Z.6 F720
;AFTER_LAYER_CHANGE
;0.6
G1 Z.8
G1 X82.929 Y87.972 F9000
G1 Z.6 F720
G1 E3.2 F1500
;TYPE:Skirt/Brim
;WIDTH:0.42
G1 F1321
G1 X82.929 Y86.061 E.05993
G1 X83.323 Y84.541 E.04923
G1 X84.405 Y83.403 E.04923
G1 X86.061 Y82.929 E.054
G1 X93.939 Y82.929 E.24703
G1 X95.459 Y83.323 E.04923
G1 X96.597 Y84.405 E.04923
G1 X97.071 Y86.061 E.054
G1 X97.071 Y93.939 E.24703
M73 P15 R4
G1 X96.677 Y95.459 E.04923
G1 X95.595 Y96.597 E.04923
G1 X93.939 Y97.071 E.054
G1 X86.061 Y97.071 E.24703
G1 X84.541 Y96.677 E.04923
G1 X83.403 Y95.595 E.04923
G1 X82.929 Y93.939 E.054
G1 X82.929 Y88.032 E.18522
G1 X83.307 Y88.032 F9000
G1 F1321
G1 X83.307 Y86.061 E.06181
G1 X83.699 Y84.643 E.04612
G1 X84.765 Y83.63 E.04612
G1 X86.061 Y83.307 E.04186
G1 X93.939 Y83.307 E.24703
G1 X95.357 Y83.699 E.04612
G1 X96.37 Y84.765 E.04612
G1 X96.693 Y86.061 E.04186
G1 X96.693 Y93.939 E.24703
G1 X96.301 Y95.357 E.04612
G1 X95.235 Y96.37 E.04612
G1 X93.939 Y96.693 E.04186
G1 X86.061 Y96.693 E.24703
G1 X84.643 Y96.301 E.04612
G1 X83.63 Y95.235 E.04612
M73 P16 R4
G1 X83.307 Y93.939 E.04186
G1 X83.307 Y88.092 E.18334
G1 X83.684 Y88.092 F9000
G1 F1321
G1 X83.684 Y86.061 E.06369
G1 X84.075 Y84.754 E.04278
G1 X85.121 Y83.877 E.04278
G1 X86.061 Y83.684 E.03008
G1 X93.939 Y83.684 E.24703
G1 X95.246 Y84.075 E.04278
G1 X96.123 Y85.121 E.04278
G1 X96.316 Y86.061 E.03008
G1 X96.316 Y93.939 E.24703
G1 X95.925 Y95.246 E.04278
G1 X94.879 Y96.123 E.04278
G1 X93.939 Y96.316 E.03008
G1 X86.061 Y96.316 E.24703
G1 X84.754 Y95.925 E.04278
G1 X83.877 Y94.879 E.04278
G1 X83.684 Y93.939 E.03008
G1 X83.684 Y88.152 E.18145
; printing object Shape-Box id:0 copy 0
G1 E-2.24 F2400
;WIPE_START
G1 F7200
G1 X83.684 Y86.061 E-.66229
G1 X83.91 Y85.305 E-.24971
;WIPE_END
G1 E-.048 F2400
G1 Z.8 F720
G1 X86.693 Y86.693 F9000
G1 Z.6 F720
G1 E3.2 F1500
M204 P800
;TYPE:Perimeter
;WIDTH:0.449999
G1 F1321
G1 X93.307 Y86.693 E.22389
G1 X93.307 Y93.307 E.22389
M73 P17 R4
G1 X86.693 Y93.307 E.22389
G1 X86.693 Y86.753 E.22186
M204 P1000
G1 X86.286 Y86.286 F9000
M204 P800
;TYPE:External perimeter
G1 F1321
G1 X93.714 Y86.286 E.25145
G1 X93.714 Y93.714 E.25145
G1 X86.286 Y93.714 E.25145
G1 X86.286 Y86.346 E.24942
M204 P1000
G1 X86.672 Y86.389 F9000
G1 E-2.24 F2400
;WIPE_START
G1 F7200
G1 X89.166 Y86.322 E-.912
;WIPE_END
G1 E-.048 F2400
G1 Z.8 F720
G1 X93.185 Y87.648 F9000
G1 Z.6 F720
G1 E3.2 F1500
;TYPE:Solid infill
;WIDTH:0.455033
G1 F1321
G1 X92.535 Y86.998 E.03152
G1 X91.952 Y86.998 E.01997
G1 X93.002 Y88.048 E.05089
G1 X93.002 Y88.631 E.01997
G1 X91.369 Y86.998 E.07913
G1 X90.786 Y86.998 E.01997
G1 X93.002 Y89.214 E.10737
G1 X93.002 Y89.797 E.01997
M73 P18 R4
G1 X90.203 Y86.998 E.13562
G1 X89.621 Y86.998 E.01997
G1 X93.002 Y90.379 E.16386
G1 X93.002 Y90.962 E.01997
G1 X89.038 Y86.998 E.19211
G1 X88.455 Y86.998 E.01997
G1 X93.002 Y91.545 E.22035
G1 X93.002 Y92.128 E.01997
G1 X87.872 Y86.998 E.24859
G1 X87.289 Y86.998 E.01997
G1 X93.002 Y92.711 E.27684
G1 X93.002 Y93.002 E.00998
G1 X92.71 Y93.002 E.00999
G1 X86.998 Y87.29 E.27683
G1 X86.998 Y87.872 E.01997
G1 X92.128 Y93.002 E.24859
G1 X91.545 Y93.002 E.01997
G1 X86.998 Y88.455 E.22034
G1 X86.998 Y89.038 E.01997
G1 X90.962 Y93.002 E.1921
G1 X90.379 Y93.002 E.01997
M73 P19 R4
G1 X86.998 Y89.621 E.16386
G1 X86.998 Y90.204 E.01997
G1 X89.796 Y93.002 E.13561
G1 X89.214 Y93.002 E.01997
G1 X86.998 Y90.786 E.10737
G1 X86.998 Y91.369 E.01997
G1 X88.631 Y93.002 E.07912
G1 X88.048 Y93.002 E.01997
G1 X86.998 Y91.952 E.05088
G1 X86.998 Y92.535 E.01997
G1 X87.648 Y93.185 E.03151
; stop printing object Shape-Box id:0 copy 0
M106 S63.75
;LAYER_CHANGE
;Z:0.8
;HEIGHT:0.2
;BEFORE_LAYER_CHANGE
G92 E0.0
;0.8


G1 E-2.24 F2400
;WIPE_START
G1 F7200
G1 X86.998 Y92.535 E-.29122
G1 X86.998 Y91.952 E-.18456
G1 X87.972 Y92.926 E-.43622
;WIPE_END
G1 E-.048 F2400
G1 Z.8 F720
;AFTER_LAYER_CHANGE
;0.8
; printing object Shape-Box id:0 copy 0
G1 Z1
G1 X86.693 Y93.307 F9000
G1 Z.8 F720
G1 E3.2 F1500
M204 P800
;TYPE:Perimeter
;WIDTH:0.449999
G1 F900
G1 X86.693 Y86.693 E.22389
G1 X93.307 Y86.693 E.22389
G1 X93.307 Y93.307 E.22389
G1 X86.753 Y93.307 E.22186
M204 P1000
G1 X86.286 Y93.714 F9000
M204 P800
;TYPE:External perimeter
G1 F900
G1 X86.286 Y86.286 E.25145
G1 X93.714 Y86.286 E.25145
M73 P20 R4
G1 X93.714 Y93.714 E.25145
G1 X86.346 Y93.714 E.24942
M204 P1000
G1 X86.389 Y93.328 F9000
G1 E-2.24 F2400
;WIPE_START
G1 F7200
G1 X86.322 Y90.834 E-.912
;WIPE_END
G1 E-.048 F2400
G1 Z1 F720
G1 X92.352 Y93.185 F9000
G1 Z.8 F720
G1 E3.2 F1500
;TYPE:Solid infill
;WIDTH:0.455033
G1 F900
G1 X93.002 Y92.535 E.03152
G1 X93.002 Y91.952 E.01997
G1 X91.952 Y93.002 E.05089
G1 X91.369 Y93.002 E.01997
G1 X93.002 Y91.369 E.07913
G1 X93.002 Y90.786 E.01997
G1 X90.786 Y93.002 E.10737
G1 X90.203 Y93.002 E.01997
G1 X93.002 Y90.203 E.13562
G1 X93.002 Y89.621 E.01997
M73 P21 R4
G1 X89.621 Y93.002 E.16386
G1 X89.038 Y93.002 E.01997
G1 X93.002 Y89.038 E.19211
G1 X93.002 Y88.455 E.01997
G1 X88.455 Y93.002 E.22035
G1 X87.872 Y93.002 E.01997
G1 X93.002 Y87.872 E.24859
G1 X93.002 Y87.289 E.01997
G1 X87.289 Y93.002 E.27684
G1 X86.998 Y93.002 E.00998
G1 X86.998 Y92.71 E.00999
G1 X92.71 Y86.998 E.27683
G1 X92.128 Y86.998 E.01997
G1 X86.998 Y92.128 E.24859
G1 X86.998 Y91.545 E.01997
M73 P22 R4
G1 X91.545 Y86.998 E.22034
G1 X90.962 Y86.998 E.01997
G1 X86.998 Y90.962 E.1921
G1 X86.998 Y90.379 E.01997
G1 X90.379 Y86.998 E.16386
G1 X89.796 Y86.998 E.01997
G1 X86.998 Y89.796 E.13561
G1 X86.998 Y89.214 E.01997
G1 X89.214 Y86.998 E.10737
G1 X88.631 Y86.998 E.01997
G1 X86.998 Y88.631 E.07912
G1 X86.998 Y88.048 E.01997
G1 X88.048 Y86.998 E.05088
G1 X87.465 Y86.998 E.01997
G1 X86.815 Y87.648 E.03151
; stop printing object Shape-Box id:0 copy 0
M106 S127.5
;LAYER_CHANGE
;Z:1
;HEIGHT:0.2
;BEFORE_LAYER_CHANGE
G92 E0.0
;1


G1 E-2.24 F2400
;WIPE_START
G1 F7200
G1 X87.465 Y86.998 E-.29122
G1 X88.048 Y86.998 E-.18456
G1 X87.074 Y87.972 E-.43622
;WIPE_END
G1 E-.048 F2400
G1 Z1 F720
;AFTER_LAYER_CHANGE
;1
; printing object Shape-Box id:0 copy 0
G1 Z1.2
G1 X86.693 Y86.693 F9000
G1 Z1 F720
G1 E3.2 F1500
M204 P800
;TYPE:Perimeter
;WIDTH:0.449999
G1 F900
G1 X93.307 Y86.693 E.22389
G1 X93.307 Y93.307 E.22389
M73 P23 R4
G1 X86.693 Y93.307 E.22389
G1 X86.693 Y86.753 E.22186
M204 P1000
G1 X86.286 Y86.286 F9000
M204 P800
;TYPE:External perimeter
G1 F900
G1 X93.714 Y86.286 E.25145
G1 X93.714 Y93.714 E.25145
G1 X86.286 Y93.714 E.25145
G1 X86.286 Y86.346 E.24942
M204 P1000
G1 X86.672 Y86.389 F9000
M73 P24 R4
G1 E-2.24 F2400
;WIPE_START
G1 F7200
G1 X89.166 Y86.322 E-.912
;WIPE_END
G1 E-.048 F2400
G1 Z1.2 F720
G1 X89.604 Y86.998 F9000
G1 Z1 F720
G1 E3.2 F1500
;TYPE:Internal infill
;WIDTH:0.45
G1 F900
G1 X92.104 Y86.998 E.08462
G1 X91.747 Y87.231 E.01441
G1 X91.31 Y87.957 E.02869
G1 X90.874 Y88.591 E.02607
G1 X90.437 Y88.998 E.0202
G1 X90 Y89.261 E.01726
G1 X89.126 Y89.549 E.03113
G1 X88.69 Y89.56 E.01479
